; LightBurn 1.4.01
; GRBL device profile, absolute coords
; Bounds: X124 Y131.22 to X276.82 Y272
G00 G17 G40 G21 G54
G90
M4
; Image @ 3000 mm/min, 45% power
M8
G0 X182.726Y133.852
; Layer C00
G91
G1 X1.25F3000S0
G1 X60S51
G1 X1.25S0
G1 Y0.1S0
G1 X-1.25S0
G1 X-60S51
G1 X-1.25S0
G1 Y0.1S0
G1 X1.25S0
G1 X60S51
G1 X1.25S0
G1 Y0.1S0
G1 X-1.25S0
G1 X-60S51
G1 X-1.25S0
G1 Y0.1S0
G1 X1.25S0
G1 X60S51
G1 X1.25S0
G1 Y0.1S0
G1 X-1.25S0
G1 X-60S51
G1 X-1.25S0
G1 Y0.1S0
G1 X1.25S0
G1 X60S51
G1 X1.25S0
G1 Y0.1S0
G1 X-1.25S0
G1 X-60S51
G1 X-1.25S0
G1 Y0.1S0
G1 X1.25S0
G1 X60S51
G1 X1.25S0
G1 Y0.1S0
G1 X-1.25S0
G1 X-60S51
G1 X-1.25S0
G1 Y0.1S0
G1 X1.25S0
G1 X60S51
G1 X1.25S0
G1 Y0.1S0
G1 X-1.25S0
G1 X-60S51
G1 X-1.25S0
G1 Y0.1S0
G1 X1.25S0
G1 X60S51
G1 X1.25S0
G1 Y0.1S0
G1 X-1.25S0
G1 X-60S51
G1 X-1.25S0
G1 Y0.1S0
G1 X1.25S0
G1 X5.9S51
G1 X0.1S53
G1 X0.4S58.8
G1 X0.1S53
G1 X0.9S51
G1 X0.1S52
G1 X0.4S58.8
G1 X0.1S55.3
G1 X52S51
G1 X1.25S0
G1 Y0.1S0
G1 X-1.25S0
G1 X-52S51
G1 X-0.1S83.6
G1 X-0.4S114.8
G1 X-0.1S57.5
G1 X-0.9S51
G1 X-0.1S64.3
G1 X-0.4S114.8
G1 X-0.1S64.8
G1 X-5.9S51
G1 X-1.25S0
G1 Y0.1S0
G1 X1.25S0
G1 X5.9S51
G1 X0.1S64.8
G1 X0.4S114.8
G1 X0.1S64.3
G1 X0.9S51
G1 X0.1S57.5
G1 X0.4S114.8
G1 X0.1S83.6
G1 X52S51
G1 X1.25S0
G1 Y0.1S0
G1 X-1.25S0
G1 X-46.6S51
G1 X-0.1S52.5
G1 X-0.1S104.2
G1 X-0.3S114.8
G1 X-0.1S99.9
G1 X-2.7S51
G1 X-0.1S81.1
G1 X-0.7S114.8
G1 X-0.1S108
G1 X-1.2S51
G1 X-0.1S83.6
G1 X-0.4S114.8
G1 X-0.1S57.5
G1 X-0.9S51
G1 X-0.1S64.3
G1 X-0.4S114.8
G1 X-0.1S64.8
G1 X-0.4S51
G1 X-0.1S88.9
G1 X-0.7S114.8
G1 X-0.1S93.4
G1 X-1.2S51
G1 X-0.1S100.7
G1 X-0.3S114.8
G1 X-0.1S106.2
G1 X-0.2S51
G1 X-0.1S53.3
G1 X-0.9S114.8
G1 X-0.1S107.7
G1 X-1.6S51
G1 X-1.25S0
G1 Y0.1S0
G1 X1.25S0
G1 X1.4S51
G1 X0.2S55.8
G1 X0.1S108.2
G1 X0.1S114.8
G1 X0.1S113
G1 X0.2S111
G1 X0.1S112.2
G1 X0.4S114.8
G1 X0.1S53.3
G1 X0.2S51
G1 X0.1S106.2
G1 X0.3S114.8
G1 X0.1S100.7
G1 X1S51
G1 X0.1S53.5
G1 X0.1S55.8
G1 X0.1S95.2
G1 X0.2S114.8
G1 X0.1S111.2
G1 X0.2S111
G1 X0.1S114.2
G1 X0.1S114.8
G1 X0.1S90.9
G1 X0.1S55.8
G1 X0.1S54.3
G1 X0.2S51
G1 X0.1S64.8
G1 X0.4S114.8
G1 X0.1S68.3
G1 X0.4S55.8
G1 X0.1S55
G1 X0.4S51
G1 X0.1S57.5
G1 X0.4S114.8
G1 X0.1S86.1
G1 X0.5S55.8
G1 X0.1S52
G1 X0.4S51
G1 X0.1S54.3
G1 X0.1S55.8
G1 X0.1S108.5
G1 X0.1S114.8
G1 X0.1S114.2
G1 X0.3S111
G1 X0.1S114.5
G1 X0.1S114.8
G1 X0.1S83.9
G1 X0.1S55.8
G1 X0.1S53.5
G1 X2.5S51
G1 X0.1S99.9
G1 X0.3S114.8
G1 X0.1S104.2
G1 X0.1S52.5
G1 X46.6S51
G1 X1.25S0
G1 Y0.1S0
G1 X-1.25S0
G1 X-46.6S51
G1 X-0.1S52.5
G1 X-0.1S104.2
G1 X-0.3S114.8
G1 X-0.1S99.9
G1 X-2.5S51
G1 X-0.1S85.4
G1 X-0.3S114.8
G1 X-0.1S110
G1 X-0.1S58
G1 X-0.1S55
G1 X-0.1S57.8
G1 X-0.1S107.2
G1 X-0.3S114.8
G1 X-0.1S96.4
G1 X-0.4S51
G1 X-0.1S67.1
G1 X-1S114.8
G1 X-0.1S57.5
G1 X-0.3S51
G1 X-0.1S53.3
G1 X-0.1S105.2
G1 X-0.9S114.8
G1 X-0.1S64.8
G1 X-0.2S51
G1 X-0.1S95.9
G1 X-0.3S114.8
G1 X-0.1S106.2
G1 X-0.2S55
G1 X-0.1S61
G1 X-0.4S114.8
G1 X-0.1S85.1
G1 X-1S51
G1 X-0.1S100.7
G1 X-0.3S114.8
G1 X-0.1S106.2
G1 X-0.2S51
G1 X-0.1S53.3
G1 X-0.4S114.8
G1 X-0.1S76.6
G1 X-0.2S55
G1 X-0.1S86.6
G1 X-0.4S114.8
G1 X-1.4S51
G1 X-1.25S0
G1 Y0.1S0
G1 X1.25S0
G1 X1.4S51
G1 X0.4S114.8
G1 X0.1S84.6
G1 X0.2S51
G1 X0.1S73.8
G1 X0.4S114.8
G1 X0.1S53.3
G1 X0.2S51
G1 X0.1S106.2
G1 X0.3S114.8
G1 X0.1S104.5
G1 X0.1S66.8
G1 X0.1S61.3
G1 X0.8S51
G1 X0.1S85.1
G1 X0.4S114.8
G1 X0.1S57.3
G1 X0.2S51
G1 X0.1S105.5
G1 X0.3S114.8
G1 X0.1S95.9
G1 X0.2S51
G1 X0.1S64.8
G1 X0.4S114.8
G1 X0.1S100.9
G1 X0.2S97.7
G1 X0.1S110.2
G1 X0.1S114.8
G1 X0.1S107.7
G1 X0.1S68.8
G1 X0.1S64.6
G1 X0.2S51
G1 X0.1S57.5
G1 X0.4S114.8
G1 X0.1S106.2
G1 X0.2S97.7
G1 X0.1S104.5
G1 X0.2S114.8
G1 X0.1S79.4
G1 X0.1S66.6
G1 X0.1S54
G1 X0.2S51
G1 X0.1S96.4
G1 X0.3S114.8
G1 X0.1S106.7
G1 X0.1S53.8
G1 X0.1S51
G1 X0.1S54
G1 X0.1S109.5
G1 X0.3S114.8
G1 X0.1S85.4
G1 X1.7S51
G1 X0.1S56
G1 X0.7S66.8
G1 X0.1S103.7
G1 X0.3S114.8
G1 X0.1S104.2
G1 X0.1S52.5
G1 X46.6S51
G1 X1.25S0
G1 Y0.1S0
G1 X-1.25S0
G1 X-46.6S51
G1 X-0.1S52.5
G1 X-0.1S104.2
G1 X-0.4S114.8
G1 X-0.7S114.5
G1 X-0.1S70.8
G1 X-1.7S51
G1 X-0.1S85.4
G1 X-0.3S114.8
G1 X-0.1S109.5
G1 X-0.1S54
G1 X-0.1S51
G1 X-0.1S53.8
G1 X-0.1S106.7
G1 X-0.3S114.8
G1 X-0.1S96.4
G1 X-0.2S51
G1 X-0.1S63.8
G1 X-0.1S113
G1 X-0.1S114.5
G1 X-0.2S114.8
G1 X-0.1S75.8
G1 X-0.2S51
G1 X-0.1S83.9
G1 X-0.4S114.8
G1 X-0.1S57.5
G1 X-0.2S51
G1 X-0.1S104.7
G1 X-0.1S114.5
G1 X-0.2S114.8
G1 X-0.1S97.2
G1 X-0.2S51
G1 X-0.1S64.3
G1 X-0.4S114.8
G1 X-0.1S64.8
G1 X-0.2S51
G1 X-0.1S95.9
G1 X-0.3S114.8
G1 X-0.1S105.5
G1 X-0.2S51
G1 X-0.1S57.3
G1 X-0.4S114.8
G1 X-0.1S85.1
G1 X-0.8S51
G1 X-0.1S91.4
G1 X-0.1S114.5
G1 X-0.4S114.8
G1 X-0.1S106.2
G1 X-0.2S51
G1 X-0.1S53.3
G1 X-0.4S114.8
G1 X-0.1S73.8
G1 X-0.2S51
G1 X-0.1S84.6
G1 X-0.4S114.8
G1 X-1.4S51
G1 X-1.25S0
G1 Y0.1S0
G1 X1.25S0
G1 X1.4S51
G1 X0.4S114.8
G1 X0.1S84.6
G1 X0.1S57.8
G1 X0.1S79.4
G1 X0.1S92.7
G1 X0.4S114.8
G1 X0.1S53.3
G1 X0.2S51
G1 X0.1S106.2
G1 X0.3S114.8
G1 X0.1S110.2
G1 X0.1S93.9
G1 X0.1S98.7
G1 X0.5S79.4
G1 X0.1S65.3
G1 X0.2S51
G1 X0.1S85.1
G1 X0.4S114.8
G1 X0.1S57.3
G1 X0.2S51
G1 X0.1S105.5
G1 X0.3S114.8
G1 X0.1S95.9
G1 X0.2S51
G1 X0.1S64.8
G1 X0.4S114.8
G1 X0.1S64.3
G1 X0.2S51
G1 X0.1S97.2
G1 X0.3S114.8
G1 X0.1S105
G1 X0.2S51
G1 X0.1S57.5
G1 X0.4S114.8
G1 X0.1S83.6
G1 X0.2S51
G1 X0.1S75.6
G1 X0.3S114.8
G1 X0.1S113.2
G1 X0.1S63.8
G1 X0.2S51
G1 X0.1S96.4
G1 X0.3S114.8
G1 X0.1S106.7
G1 X0.1S53.8
G1 X0.1S51
G1 X0.1S54
G1 X0.1S109.5
G1 X0.3S114.8
G1 X0.1S85.4
G1 X1.7S51
G1 X0.1S71.1
G1 X0.4S114.8
G1 X0.1S96.4
G1 X0.2S93.4
G1 X0.1S109.7
G1 X0.3S114.8
G1 X0.1S104.2
G1 X0.1S52.5
G1 X46.6S51
G1 X1.25S0
G1 Y0.1S0
G1 X-1.25S0
G1 X-46.6S51
G1 X-0.1S52.5
G1 X-0.1S104.2
G1 X-0.3S114.8
G1 X-0.1S99.9
G1 X-0.2S51
G1 X-0.1S59.5
G1 X-0.4S114.8
G1 X-0.1S71.1
G1 X-1.7S51
G1 X-0.1S85.4
G1 X-0.3S114.8
G1 X-0.1S109.5
G1 X-0.1S54
G1 X-0.1S51
G1 X-0.1S53.8
G1 X-0.1S106.7
G1 X-0.3S114.8
G1 X-0.1S96.4
G1 X-0.2S51
G1 X-0.1S63.8
G1 X-0.1S113.2
G1 X-0.3S114.8
G1 X-0.1S75.6
G1 X-0.2S51
G1 X-0.1S83.6
G1 X-0.4S114.8
G1 X-0.1S57.5
G1 X-0.2S51
G1 X-0.1S105
G1 X-0.3S114.8
G1 X-0.1S97.2
G1 X-0.2S51
G1 X-0.1S64.3
G1 X-0.4S114.8
G1 X-0.1S64.8
G1 X-0.2S51
G1 X-0.1S95.9
G1 X-0.3S114.8
G1 X-0.1S105.5
G1 X-0.2S51
G1 X-0.1S57.3
G1 X-0.4S114.8
G1 X-0.1S85.1
G1 X-0.2S51
G1 X-0.1S83.4
G1 X-0.5S114.8
G1 X-0.1S103.7
G1 X-0.1S52
G1 X-0.1S100.7
G1 X-0.3S114.8
G1 X-0.1S106.2
G1 X-0.2S51
G1 X-0.1S53.3
G1 X-0.6S114.8
G1 X-0.1S65.8
G1 X-0.1S84.6
G1 X-0.4S114.8
G1 X-1.4S51
G1 X-1.25S0
G1 Y0.1S0
G1 X1.25S0
G1 X1.4S51
G1 X0.4S114.8
G1 X0.1S84.6
G1 X0.1S59.3
G1 X0.6S84.1
G1 X0.1S52
G1 X0.2S51
G1 X0.1S106.2
G1 X0.3S114.8
G1 X0.1S100.7
G1 X0.1S51.5
G1 X0.1S78.6
G1 X0.1S88.6
G1 X0.1S114
G1 X0.3S114.8
G1 X0.1S83.4
G1 X0.2S51
G1 X0.1S85.1
G1 X0.4S114.8
G1 X0.1S57.3
G1 X0.2S51
G1 X0.1S105.5
G1 X0.3S114.8
G1 X0.1S95.9
G1 X0.2S51
G1 X0.1S64.8
G1 X0.4S114.8
G1 X0.1S85.1
G1 X0.2S77.1
G1 X0.1S105
G1 X0.1S114.8
G1 X0.1S110.2
G1 X0.1S85.4
G1 X0.1S79.4
G1 X0.2S51
G1 X0.1S57.5
G1 X0.4S114.8
G1 X0.1S96.4
G1 X0.2S77.1
G1 X0.1S92.2
G1 X0.2S114.8
G1 X0.1S92.2
G1 X0.1S83.4
G1 X0.1S57.8
G1 X0.2S51
G1 X0.1S75.1
G1 X0.1S84.1
G1 X0.1S111.5
G1 X0.1S114.8
G1 X0.1S110
G1 X0.1S78.9
G1 X0.1S77.1
G1 X0.1S79.1
G1 X0.1S112
G1 X0.1S114.8
G1 X0.1S99.2
G1 X0.1S84.1
G1 X0.1S69.3
G1 X1.7S51
G1 X0.1S62
G1 X0.1S84.1
G1 X0.1S90.9
G1 X0.2S114.8
G1 X0.1S59.5
G1 X0.2S51
G1 X0.1S99.9
G1 X0.3S114.8
G1 X0.1S104.2
G1 X0.1S52.5
G1 X46.6S51
G1 X1.25S0
G1 Y0.1S0
G1 X-1.25S0
G1 X-46.6S51
G1 X-0.1S52.5
G1 X-0.1S104.2
G1 X-0.3S114.8
G1 X-0.1S99.9
G1 X-0.2S51
G1 X-0.1S59.5
G1 X-0.2S114.8
G1 X-0.1S65.1
G1 X-2.1S51
G1 X-0.1S81.1
G1 X-0.7S114.8
G1 X-0.1S108
G1 X-0.6S51
G1 X-0.1S67.1
G1 X-1S114.8
G1 X-0.1S57.5
G1 X-0.3S51
G1 X-0.1S53.3
G1 X-0.1S105.2
G1 X-0.9S114.8
G1 X-0.1S64.8
G1 X-0.2S51
G1 X-0.1S95.9
G1 X-0.3S114.8
G1 X-0.1S105.5
G1 X-0.2S51
G1 X-0.1S57.3
G1 X-0.4S114.8
G1 X-0.1S85.1
G1 X-0.2S51
G1 X-0.1S83.4
G1 X-0.3S114.8
G1 X-0.1S113
G1 X-0.1S60
G1 X-0.2S51
G1 X-0.1S100.7
G1 X-0.3S114.8
G1 X-0.1S106.2
G1 X-1S51
G1 X-0.1S84.6
G1 X-0.4S114.8
G1 X-1.4S51
G1 X-1.25S0
G1 Y0.1S0
G1 X1.25S0
G1 X1.4S51
G1 X0.4S114.8
G1 X0.1S84.6
G1 X0.4S51
G1 X0.1S61.8
G1 X0.2S85.9
G1 X0.1S52.3
G1 X0.2S51
G1 X0.1S84.1
G1 X0.3S89.4
G1 X0.1S81.1
G1 X0.2S51
G1 X0.1S56.5
G1 X0.1S88.4
G1 X0.3S89.4
G1 X0.1S70.6
G1 X0.2S51
G1 X0.1S72.1
G1 X0.4S89.4
G1 X0.1S55
G1 X0.2S51
G1 X0.1S83.9
G1 X0.3S89.4
G1 X0.1S78.1
G1 X0.2S51
G1 X0.1S59.8
G1 X0.9S89.4
G1 X0.1S83.9
G1 X0.1S52.3
G1 X0.3S51
G1 X0.1S55.3
G1 X1S89.4
G1 X0.1S61
G1 X0.6S51
G1 X0.1S85.4
G1 X0.7S89.4
G1 X0.1S69.8
G1 X2.1S51
G1 X0.1S60.3
G1 X0.1S89.4
G1 X0.1S100.2
G1 X0.1S89.9
G1 X0.1S85.9
G1 X0.1S51
G1 X0.1S99.9
G1 X0.3S114.8
G1 X0.1S104.2
G1 X0.1S52.5
G1 X46.6S51
G1 X1.25S0
G1 Y0.1S0
G1 X-1.25S0
G1 X-46.6S51
G1 X-0.1S52.5
G1 X-0.1S104.2
G1 X-0.3S114.8
G1 X-0.1S99.9
G1 X-0.1S51
G1 X-0.2S114.8
G1 X-0.1S76.9
G1 X-9.7S51
G1 X-0.1S53.3
G1 X-0.2S114.8
G1 X-0.1S68.3
G1 X-0.4S51
G1 X-0.1S84.6
G1 X-0.4S114.8
G1 X-1.4S51
G1 X-1.25S0
G1 Y0.1S0
G1 X1.25S0
G1 X1.4S51
G1 X0.2S76.9
G1 X0.1S110.7
G1 X0.1S114.8
G1 X0.1S101.7
G1 X0.4S86.9
G1 X0.1S93.7
G1 X0.1S85.6
G1 X0.1S76.9
G1 X0.1S51.8
G1 X9.7S51
G1 X0.1S61.8
G1 X0.1S76.9
G1 X0.1S95.7
G1 X0.1S86.9
G1 X0.1S108.2
G1 X0.3S114.8
G1 X0.1S104.2
G1 X0.1S52.5
G1 X46.6S51
G1 X1.25S0
G1 Y0.1S0
G1 X-1.25S0
G1 X-46.6S51
G1 X-0.1S52.5
G1 X-0.1S104.2
G1 X-0.5S114.8
G1 X-0.1S82.6
G1 X-10.1S51
G1 X-0.1S65.1
G1 X-0.1S113.7
G1 X-0.6S114.8
G1 X-0.1S107.7
G1 X-1.6S51
G1 X-1.25S0
G1 Y0.1S0
G1 X1.25S0
G1 X1.6S51
G1 X0.1S67.6
G1 X0.6S69.8
G1 X0.1S69.3
G1 X0.1S55
G1 X10.1S51
G1 X0.1S60.3
G1 X0.5S69.8
G1 X0.1S66.6
G1 X0.1S51.3
G1 X46.6S51
G1 X1.25S0
G1 Y0.1S0
G1 X-1.25S0
G1 X-60S51
G1 X-1.25S0
G1 Y0.1S0
G1 X1.25S0
G1 X60S51
G1 X1.25S0
G1 Y0.1S0
G1 X-1.25S0
G1 X-60S51
G1 X-1.25S0
G1 Y0.1S0
G1 X1.25S0
G1 X60S51
G1 X1.25S0
G1 Y0.1S0
G1 X-1.25S0
G1 X-60S51
G1 X-1.25S0
G1 Y0.1S0
G1 X1.25S0
G1 X60S51
G1 X1.25S0
G1 Y0.1S0
G1 X-1.25S0
G1 X-60S51
G1 X-1.25S0
G1 Y0.1S0
G1 X1.25S0
G1 X60S51
G1 X1.25S0
G1 Y0.1S0
G1 X-1.25S0
G1 X-60S51
G1 X-1.25S0
G1 Y0.1S0
G1 X1.25S0
G1 X60S51
G1 X1.25S0
G1 Y0.1S0
G1 X-1.25S0
G1 X-60S51
G1 X-1.25S0
G1 Y0.1S0
G1 X1.25S0
G1 X60S51
G1 X1.25S0
G1 Y0.1S0
G1 X-1.25S0
G1 X-60S51
G1 X-1.25S0
G1 Y0.1S0
G1 X1.25S0
G1 X60S51
G1 X1.25S0
G1 Y0.1S0
G1 X-1.25S0
G1 X-60S51
G1 X-1.25S0
G1 Y0.1S0
G1 X1.25S0
G1 X60S51
G1 X1.25S0
G1 Y0.1S0
G1 X-1.25S0
G1 X-60S51
G1 X-1.25S0
G1 Y0.1S0
G1 X1.25S0
G1 X1.8S51
G1 X0.1S91.2
G1 X1.2S114.8
G1 X0.1S90.7
G1 X1.1S51
G1 X0.1S99.4
G1 X1.2S114.8
G1 X0.1S79.9
G1 X0.7S51
G1 X0.1S53.8
G1 X0.1S105.7
G1 X0.6S114.8
G1 X0.5S51
G1 X0.1S74.1
G1 X0.6S114.8
G1 X0.1S86.9
G1 X0.5S51
G1 X0.1S101.7
G1 X1.5S114.8
G1 X0.1S76.1
G1 X1.1S51
G1 X0.1S94.7
G1 X1.2S114.8
G1 X0.1S71.6
G1 X0.8S51
G1 X0.6S114.8
G1 X0.1S107.7
G1 X0.1S55.5
G1 X1.6S51
G1 X0.1S60.3
G1 X1.6S114.8
G1 X0.1S67.3
G1 X3.5S51
G1 X0.1S55.5
G1 X0.1S112.5
G1 X1.5S114.8
G1 X0.1S76.9
G1 X0.4S51
G1 X0.1S64.3
G1 X0.1S113.5
G1 X0.5S114.8
G1 X0.1S101.4
G1 X0.5S51
G1 X0.1S92.9
G1 X0.6S114.8
G1 X0.1S65.8
G1 X0.7S51
G1 X0.1S54.8
G1 X0.1S109.7
G1 X1.5S114.8
G1 X0.1S58
G1 X3.5S51
G1 X0.1S62.3
G1 X0.6S114.8
G1 X0.1S104.7
G1 X0.1S53
G1 X1S51
G1 X0.1S75.3
G1 X0.6S114.8
G1 X0.1S96.9
G1 X2S51
G1 X0.1S69.1
G1 X1.6S114.8
G1 X0.1S59.5
G1 X0.4S51
G1 X0.1S89.1
G1 X0.6S114.8
G1 X0.1S78.9
G1 X0.4S51
G1 X0.1S57.5
G1 X0.1S110
G1 X0.6S114.8
G1 X0.5S51
G1 X0.1S89.7
G1 X1.5S114.8
G1 X0.1S92.4
G1 X1.1S51
G1 X0.1S79.4
G1 X1.5S114.8
G1 X0.1S99.7
G1 X0.8S51
G1 X0.1S73.6
G1 X1.2S114.8
G1 X0.1S94.2
G1 X1.1S51
G1 X0.1S81.9
G1 X1.2S114.8
G1 X0.1S95.2
G1 X1.1S51
G1 X0.1S93.7
G1 X1.2S114.8
G1 X0.1S88.1
G1 X0.7S51
G1 X0.1S54.8
G1 X0.1S110.2
G1 X0.6S114.8
G1 X0.1S60.5
G1 X1.6S51
G1 X0.1S55.3
G1 X0.1S107.5
G1 X1.5S114.8
G1 X0.1S67.8
G1 X1.9S51
G1 X1.25S0
G1 Y0.1S0
G1 X-1.25S0
G1 X-1.9S51
G1 X-0.1S67.8
G1 X-1.5S114.8
G1 X-0.1S107.5
G1 X-0.1S55.3
G1 X-1.6S51
G1 X-0.1S60.5
G1 X-0.6S114.8
G1 X-0.1S110.2
G1 X-0.1S54.8
G1 X-0.7S51
G1 X-0.1S88.1
G1 X-1.2S114.8
G1 X-0.1S93.7
G1 X-1.1S51
G1 X-0.1S95.2
G1 X-1.2S114.8
G1 X-0.1S81.9
G1 X-1.1S51
G1 X-0.1S94.2
G1 X-1.2S114.8
G1 X-0.1S73.6
G1 X-0.8S51
G1 X-0.1S99.7
G1 X-1.5S114.8
G1 X-0.1S79.4
G1 X-1.1S51
G1 X-0.1S92.4
G1 X-1.5S114.8
G1 X-0.1S89.7
G1 X-0.5S51
G1 X-0.6S114.8
G1 X-0.1S110
G1 X-0.1S57.5
G1 X-0.4S51
G1 X-0.1S78.9
G1 X-0.6S114.8
G1 X-0.1S89.1
G1 X-0.4S51
G1 X-0.1S59.5
G1 X-1.6S114.8
G1 X-0.1S69.1
G1 X-2S51
G1 X-0.1S96.9
G1 X-0.6S114.8
G1 X-0.1S75.3
G1 X-1S51
G1 X-0.1S53
G1 X-0.1S104.7
G1 X-0.6S114.8
G1 X-0.1S62.3
G1 X-3.5S51
G1 X-0.1S58
G1 X-1.5S114.8
G1 X-0.1S109.7
G1 X-0.1S54.8
G1 X-0.7S51
G1 X-0.1S65.8
G1 X-0.6S114.8
G1 X-0.1S92.9
G1 X-0.5S51
G1 X-0.1S101.4
G1 X-0.5S114.8
G1 X-0.1S113.5
G1 X-0.1S64.3
G1 X-0.4S51
G1 X-0.1S76.9
G1 X-1.5S114.8
G1 X-0.1S112.5
G1 X-0.1S55.5
G1 X-3.5S51
G1 X-0.1S67.3
G1 X-1.6S114.8
G1 X-0.1S60.3
G1 X-1.6S51
G1 X-0.1S55.5
G1 X-0.1S107.7
G1 X-0.6S114.8
G1 X-0.8S51
G1 X-0.1S71.6
G1 X-1.2S114.8
G1 X-0.1S94.7
G1 X-1.1S51
G1 X-0.1S76.1
G1 X-1.5S114.8
G1 X-0.1S101.7
G1 X-0.5S51
G1 X-0.1S86.9
G1 X-0.6S114.8
G1 X-0.1S74.1
G1 X-0.5S51
G1 X-0.6S114.8
G1 X-0.1S105.7
G1 X-0.1S53.8
G1 X-0.7S51
G1 X-0.1S79.9
G1 X-1.2S114.8
G1 X-0.1S99.4
G1 X-1.1S51
G1 X-0.1S90.7
G1 X-1.2S114.8
G1 X-0.1S91.2
G1 X-1.8S51
G1 X-1.25S0
G1 Y0.1S0
G1 X1.25S0
G1 X1.8S51
G1 X0.1S91.2
G1 X1.2S114.8
G1 X0.1S90.7
G1 X1.1S51
G1 X0.1S99.4
G1 X1.2S114.8
G1 X0.1S79.9
G1 X0.7S51
G1 X0.1S53.8
G1 X0.1S105.7
G1 X0.6S114.8
G1 X0.5S51
G1 X0.1S74.1
G1 X0.6S114.8
G1 X0.1S86.9
G1 X0.5S51
G1 X0.1S101.7
G1 X1.5S114.8
G1 X0.1S76.1
G1 X1.1S51
G1 X0.1S94.7
G1 X1.2S114.8
G1 X0.1S71.6
G1 X0.8S51
G1 X0.6S114.8
G1 X0.1S107.7
G1 X0.1S55.5
G1 X1.6S51
G1 X0.1S60.3
G1 X1.6S114.8
G1 X0.1S67.3
G1 X3.5S51
G1 X0.1S55.5
G1 X0.1S112.5
G1 X1.5S114.8
G1 X0.1S76.9
G1 X0.4S51
G1 X0.1S64.3
G1 X0.1S113.5
G1 X0.5S114.8
G1 X0.1S101.4
G1 X0.5S51
G1 X0.1S92.9
G1 X0.6S114.8
G1 X0.1S65.8
G1 X0.7S51
G1 X0.1S54.8
G1 X0.1S109.7
G1 X1.5S114.8
G1 X0.1S58
G1 X3.5S51
G1 X0.1S62.3
G1 X0.6S114.8
G1 X0.1S104.7
G1 X0.1S53
G1 X1S51
G1 X0.1S75.3
G1 X0.6S114.8
G1 X0.1S96.9
G1 X2S51
G1 X0.1S69.1
G1 X1.6S114.8
G1 X0.1S59.5
G1 X0.4S51
G1 X0.1S89.1
G1 X0.6S114.8
G1 X0.1S78.9
G1 X0.4S51
G1 X0.1S57.5
G1 X0.1S110
G1 X0.6S114.8
G1 X0.5S51
G1 X0.1S89.7
G1 X1.5S114.8
G1 X0.1S92.4
G1 X1.1S51
G1 X0.1S79.4
G1 X1.5S114.8
G1 X0.1S99.7
G1 X0.8S51
G1 X0.1S73.6
G1 X1.2S114.8
G1 X0.1S94.2
G1 X1.1S51
G1 X0.1S81.9
G1 X1.2S114.8
G1 X0.1S95.2
G1 X1.1S51
G1 X0.1S93.7
G1 X1.2S114.8
G1 X0.1S88.1
G1 X0.7S51
G1 X0.1S54.8
G1 X0.1S110.2
G1 X0.6S114.8
G1 X0.1S60.5
G1 X1.6S51
G1 X0.1S55.3
G1 X0.1S107.5
G1 X1.5S114.8
G1 X0.1S67.8
G1 X1.9S51
G1 X1.25S0
G1 Y0.1S0
G1 X-1.25S0
G1 X-1.6S51
G1 X-0.1S85.1
G1 X-0.6S114.8
G1 X-0.1S85.6
G1 X-1.1S65.1
G1 X-0.1S63.8
G1 X-0.1S52
G1 X-1.6S51
G1 X-0.1S60.5
G1 X-0.6S114.8
G1 X-0.1S110.2
G1 X-0.1S54.8
G1 X-0.7S51
G1 X-0.1S59.8
G1 X-0.8S65.1
G1 X-0.1S77.4
G1 X-0.7S114.8
G1 X-0.4S51
G1 X-0.1S53
G1 X-0.1S104.5
G1 X-0.3S114.8
G1 X-0.8S65.1
G1 X-0.1S80.1
G1 X-0.6S114.8
G1 X-0.1S99.4
G1 X-0.4S51
G1 X-0.1S52
G1 X-0.1S103.5
G1 X-0.6S114.8
G1 X-0.5S65.1
G1 X-0.1S79.9
G1 X-0.6S114.8
G1 X-0.1S89.1
G1 X-0.5S51
G1 X-0.1S99.7
G1 X-0.6S114.8
G1 X-0.5S65.1
G1 X-0.1S74.1
G1 X-0.6S114.8
G1 X-0.1S93.2
G1 X-0.5S51
G1 X-0.1S104.7
G1 X-0.5S114.8
G1 X-0.1S111.5
G1 X-0.1S69.1
G1 X-1.1S65.1
G1 X-0.1S60
G1 X-0.5S51
G1 X-0.6S114.8
G1 X-0.1S110
G1 X-0.1S57.5
G1 X-0.4S51
G1 X-0.1S78.9
G1 X-0.6S114.8
G1 X-0.1S89.1
G1 X-0.4S51
G1 X-0.1S59.5
G1 X-0.6S114.8
G1 X-0.1S113.7
G1 X-0.1S68.8
G1 X-0.4S65.1
G1 X-0.1S95.4
G1 X-0.6S114.8
G1 X-0.1S83.9
G1 X-1.7S51
G1 X-0.1S96.9
G1 X-0.6S114.8
G1 X-0.1S75.3
G1 X-1S51
G1 X-0.1S53
G1 X-0.1S104.7
G1 X-0.6S114.8
G1 X-0.1S62.3
G1 X-3.5S51
G1 X-0.1S58
G1 X-0.6S114.8
G1 X-0.1S99.7
G1 X-0.5S65.1
G1 X-0.1S97.9
G1 X-0.6S114.8
G1 X-0.1S62.3
G1 X-0.4S51
G1 X-0.1S65.8
G1 X-0.6S114.8
G1 X-0.1S92.9
G1 X-0.5S51
G1 X-0.1S101.4
G1 X-0.5S114.8
G1 X-0.1S113.5
G1 X-0.1S64.3
G1 X-0.4S51
G1 X-0.1S76.9
G1 X-0.6S114.8
G1 X-0.1S98.4
G1 X-0.5S65.1
G1 X-0.7S114.8
G1 X-0.1S62.8
G1 X-2.9S51
G1 X-0.1S80.9
G1 X-0.6S114.8
G1 X-0.1S97.9
G1 X-1.2S65.1
G1 X-0.1S53.8
G1 X-1.6S51
G1 X-0.1S55.5
G1 X-0.1S107.7
G1 X-0.6S114.8
G1 X-0.5S51
G1 X-0.1S86.4
G1 X-0.6S114.8
G1 X-0.1S81.1
G1 X-0.4S65.1
G1 X-0.1S66.8
G1 X-0.1S110.5
G1 X-0.5S114.8
G1 X-0.1S106
G1 X-0.5S51
G1 X-0.1S90.9
G1 X-0.6S114.8
G1 X-0.1S77.4
G1 X-1.1S65.1
G1 X-0.1S62.8
G1 X-0.5S51
G1 X-0.1S86.9
G1 X-0.6S114.8
G1 X-0.1S74.1
G1 X-0.5S51
G1 X-0.6S114.8
G1 X-0.1S105.7
G1 X-0.1S53.8
G1 X-0.7S51
G1 X-0.1S58.8
G1 X-0.8S65.1
G1 X-0.1S72.8
G1 X-0.6S114.8
G1 X-0.1S107.7
G1 X-0.1S54
G1 X-0.4S51
G1 X-0.1S112
G1 X-0.6S114.8
G1 X-0.1S78.6
G1 X-0.7S65.1
G1 X-0.1S70.6
G1 X-0.3S114.8
G1 X-0.1S112.7
G1 X-1.5S51
G1 X-1.25S0
G1 Y0.1S0
G1 X1.25S0
G1 X1.5S51
G1 X0.1S112.7
G1 X0.3S114.8
G1 X0.1S58
G1 X0.7S51
G1 X0.1S68.3
G1 X0.6S114.8
G1 X0.1S112
G1 X0.4S51
G1 X0.1S54
G1 X0.1S107.7
G1 X0.6S114.8
G1 X0.1S61.3
G1 X1.6S51
G1 X0.1S53.8
G1 X0.1S105.7
G1 X0.6S114.8
G1 X0.5S51
G1 X0.1S74.1
G1 X0.6S114.8
G1 X0.1S86.9
G1 X1.7S51
G1 X0.1S66.6
G1 X0.6S114.8
G1 X0.1S90.9
G1 X0.5S51
G1 X0.1S106
G1 X0.5S114.8
G1 X0.1S109
G1 X0.1S52.8
G1 X0.4S51
G1 X0.1S72.3
G1 X0.6S114.8
G1 X0.1S86.4
G1 X0.5S51
G1 X0.6S114.8
G1 X0.1S107.7
G1 X0.1S55.5
G1 X2.9S51
G1 X0.1S92.4
G1 X0.6S114.8
G1 X0.1S80.9
G1 X2.9S51
G1 X0.1S62.8
G1 X0.7S114.8
G1 X0.5S51
G1 X0.1S93.7
G1 X0.6S114.8
G1 X0.1S76.9
G1 X0.4S51
G1 X0.1S64.3
G1 X0.1S113.5
G1 X0.5S114.8
G1 X0.1S101.4
G1 X0.5S51
G1 X0.1S92.9
G1 X0.6S114.8
G1 X0.1S65.8
G1 X0.4S51
G1 X0.1S62.3
G1 X0.6S114.8
G1 X0.1S93.2
G1 X0.5S51
G1 X0.1S95.4
G1 X0.6S114.8
G1 X0.1S58
G1 X3.5S51
G1 X0.1S62.3
G1 X0.6S114.8
G1 X0.1S104.7
G1 X0.1S53
G1 X1S51
G1 X0.1S75.3
G1 X0.6S114.8
G1 X0.1S96.9
G1 X1.7S51
G1 X0.1S83.9
G1 X0.6S114.8
G1 X0.1S89.4
G1 X0.4S51
G1 X0.1S55.8
G1 X0.1S113.5
G1 X0.6S114.8
G1 X0.1S59.5
G1 X0.4S51
G1 X0.1S89.1
G1 X0.6S114.8
G1 X0.1S78.9
G1 X0.4S51
G1 X0.1S57.5
G1 X0.1S110
G1 X0.6S114.8
G1 X1.7S51
G1 X0.1S55.8
G1 X0.1S110.2
G1 X0.5S114.8
G1 X0.1S104.7
G1 X0.5S51
G1 X0.1S93.2
G1 X0.6S114.8
G1 X0.1S62.5
G1 X0.5S51
G1 X0.6S114.8
G1 X0.1S99.7
G1 X0.5S51
G1 X0.1S89.1
G1 X0.6S114.8
G1 X0.1S69.8
G1 X0.5S51
G1 X0.6S114.8
G1 X0.1S103.5
G1 X0.1S52
G1 X0.4S51
G1 X0.1S99.4
G1 X0.6S114.8
G1 X0.1S69.8
G1 X0.8S51
G1 X0.3S114.8
G1 X0.1S104.5
G1 X0.1S53
G1 X0.4S51
G1 X0.7S114.8
G1 X0.1S66.6
G1 X1.6S51
G1 X0.1S54.8
G1 X0.1S110.2
G1 X0.6S114.8
G1 X0.1S60.5
G1 X2.9S51
G1 X0.1S77.4
G1 X0.6S114.8
G1 X0.1S85.1
G1 X1.6S51
G1 X1.25S0
G1 Y0.1S0
G1 X-1.25S0
G1 X-1.6S51
G1 X-0.1S85.1
G1 X-0.6S114.8
G1 X-0.1S77.4
G1 X-2.9S51
G1 X-0.1S60.5
G1 X-0.6S114.8
G1 X-0.1S110.2
G1 X-0.1S54.8
G1 X-1.6S51
G1 X-0.1S66.6
G1 X-0.7S114.8
G1 X-0.4S51
G1 X-0.1S53
G1 X-0.1S104.5
G1 X-0.3S114.8
G1 X-0.8S51
G1 X-0.1S69.8
G1 X-0.6S114.8
G1 X-0.1S99.4
G1 X-0.4S51
G1 X-0.1S52
G1 X-0.1S103.5
G1 X-0.6S114.8
G1 X-0.5S51
G1 X-0.1S69.8
G1 X-0.6S114.8
G1 X-0.1S89.1
G1 X-0.5S51
G1 X-0.1S99.7
G1 X-0.6S114.8
G1 X-0.5S51
G1 X-0.1S62.5
G1 X-0.6S114.8
G1 X-0.1S93.2
G1 X-0.5S51
G1 X-0.1S104.7
G1 X-0.5S114.8
G1 X-0.1S110.2
G1 X-0.1S55.8
G1 X-1.7S51
G1 X-0.6S114.8
G1 X-0.1S110
G1 X-0.1S57.5
G1 X-0.4S51
G1 X-0.1S78.9
G1 X-0.6S114.8
G1 X-0.1S89.1
G1 X-0.4S51
G1 X-0.1S59.5
G1 X-0.6S114.8
G1 X-0.1S113.5
G1 X-0.1S55.8
G1 X-0.4S51
G1 X-0.1S89.4
G1 X-0.6S114.8
G1 X-0.1S83.9
G1 X-1.7S51
G1 X-0.1S96.9
G1 X-0.6S114.8
G1 X-0.1S75.3
G1 X-1S51
G1 X-0.1S53
G1 X-0.1S104.7
G1 X-0.6S114.8
G1 X-0.1S62.3
G1 X-3.5S51
G1 X-0.1S58
G1 X-0.6S114.8
G1 X-0.1S95.4
G1 X-0.5S51
G1 X-0.1S93.2
G1 X-0.6S114.8
G1 X-0.1S62.3
G1 X-0.4S51
G1 X-0.1S65.8
G1 X-0.6S114.8
G1 X-0.1S92.9
G1 X-0.5S51
G1 X-0.1S101.4
G1 X-0.5S114.8
G1 X-0.1S113.5
G1 X-0.1S64.3
G1 X-0.4S51
G1 X-0.1S76.9
G1 X-0.6S114.8
G1 X-0.1S93.7
G1 X-0.5S51
G1 X-0.7S114.8
G1 X-0.1S62.8
G1 X-2.9S51
G1 X-0.1S80.9
G1 X-0.6S114.8
G1 X-0.1S92.4
G1 X-2.9S51
G1 X-0.1S55.5
G1 X-0.1S107.7
G1 X-0.6S114.8
G1 X-0.5S51
G1 X-0.1S86.4
G1 X-0.6S114.8
G1 X-0.1S72.3
G1 X-0.4S51
G1 X-0.1S52.8
G1 X-0.1S109
G1 X-0.5S114.8
G1 X-0.1S106
G1 X-0.5S51
G1 X-0.1S90.9
G1 X-0.6S114.8
G1 X-0.1S66.6
G1 X-1.7S51
G1 X-0.1S86.9
G1 X-0.6S114.8
G1 X-0.1S74.1
G1 X-0.5S51
G1 X-0.6S114.8
G1 X-0.1S105.7
G1 X-0.1S53.8
G1 X-1.6S51
G1 X-0.1S61.3
G1 X-0.6S114.8
G1 X-0.1S107.7
G1 X-0.1S54
G1 X-0.4S51
G1 X-0.1S112
G1 X-0.6S114.8
G1 X-0.1S68.3
G1 X-0.7S51
G1 X-0.1S58
G1 X-0.3S114.8
G1 X-0.1S112.7
G1 X-1.5S51
G1 X-1.25S0
G1 Y0.1S0
G1 X1.25S0
G1 X1.5S51
G1 X0.1S67.6
G1 X0.3S68.1
G1 X0.1S53.3
G1 X0.7S51
G1 X0.1S68.3
G1 X0.6S114.8
G1 X0.1S112
G1 X0.4S51
G1 X0.1S54
G1 X0.1S107.7
G1 X0.6S114.8
G1 X0.1S98.4
G1 X1.1S94.7
G1 X0.1S83.4
G1 X0.4S51
G1 X0.1S53.8
G1 X0.1S105.7
G1 X0.6S114.8
G1 X0.5S51
G1 X0.1S74.1
G1 X0.6S114.8
G1 X0.1S86.9
G1 X0.8S51
G1 X0.1S79.4
G1 X0.8S94.7
G1 X0.1S99.7
G1 X0.3S114.8
G1 X0.1S86.1
G1 X0.2S68.1
G1 X0.1S62.5
G1 X0.5S51
G1 X0.1S106
G1 X0.5S114.8
G1 X0.1S109
G1 X0.1S52.8
G1 X0.4S51
G1 X0.1S72.3
G1 X0.6S114.8
G1 X0.1S86.4
G1 X0.5S51
G1 X0.6S114.8
G1 X0.1S112.7
G1 X0.1S96.4
G1 X0.1S94.7
G1 X0.1S92.2
G1 X0.1S56
G1 X1.7S51
G1 X0.9S94.7
G1 X0.1S108.5
G1 X0.3S114.8
G1 X0.1S80.1
G1 X0.2S68.1
G1 X0.1S59.5
G1 X2.9S51
G1 X0.1S54.8
G1 X0.2S68.1
G1 X0.1S71.3
G1 X0.1S113
G1 X0.3S114.8
G1 X0.5S94.7
G1 X0.1S108.2
G1 X0.6S114.8
G1 X0.1S76.9
G1 X0.4S51
G1 X0.1S64.3
G1 X0.1S113.5
G1 X0.5S114.8
G1 X0.1S101.4
G1 X0.5S51
G1 X0.1S92.9
G1 X0.6S114.8
G1 X0.1S65.8
G1 X0.4S51
G1 X0.1S62.3
G1 X0.6S114.8
G1 X0.1S93.2
G1 X0.5S51
G1 X0.1S95.4
G1 X0.6S114.8
G1 X0.1S58
G1 X3.5S51
G1 X0.1S62.3
G1 X0.6S114.8
G1 X0.1S104.7
G1 X0.1S53
G1 X1S51
G1 X0.1S75.3
G1 X0.6S114.8
G1 X0.1S109.2
G1 X0.2S94.7
G1 X0.1S86.6
G1 X1.4S51
G1 X0.1S60.3
G1 X0.2S68.1
G1 X0.1S81.6
G1 X0.3S114.8
G1 X0.1S107.5
G1 X0.4S94.7
G1 X0.1S96.7
G1 X0.1S114.5
G1 X0.6S114.8
G1 X0.1S59.5
G1 X0.4S51
G1 X0.1S89.1
G1 X0.6S114.8
G1 X0.1S78.9
G1 X0.4S51
G1 X0.1S57.5
G1 X0.1S110
G1 X0.6S114.8
G1 X0.8S51
G1 X0.1S68.1
G1 X0.8S94.7
G1 X0.1S96.4
G1 X0.1S113.5
G1 X0.2S114.8
G1 X0.1S98.4
G1 X0.2S68.1
G1 X0.1S65.8
G1 X0.5S51
G1 X0.1S93.2
G1 X0.6S114.8
G1 X0.1S62.5
G1 X0.5S51
G1 X0.6S114.8
G1 X0.1S99.7
G1 X0.5S51
G1 X0.1S89.1
G1 X0.6S114.8
G1 X0.1S69.8
G1 X0.5S51
G1 X0.6S114.8
G1 X0.1S103.5
G1 X0.1S52
G1 X0.4S51
G1 X0.1S99.4
G1 X0.6S114.8
G1 X0.1S69.8
G1 X0.8S51
G1 X0.3S68.1
G1 X0.1S65.6
G1 X0.1S51.5
G1 X0.4S51
G1 X0.7S114.8
G1 X0.1S100.2
G1 X1.1S94.7
G1 X0.1S90.7
G1 X0.4S51
G1 X0.1S54.8
G1 X0.1S110.2
G1 X0.6S114.8
G1 X0.1S98.2
G1 X0.2S94.7
G1 X0.1S59
G1 X1.6S51
G1 X0.1S51.5
G1 X0.1S84.9
G1 X0.8S94.7
G1 X0.1S103.2
G1 X0.3S114.8
G1 X0.1S79.9
G1 X0.2S68.1
G1 X0.1S61.3
G1 X1.6S51
G1 X1.25S0
G1 Y0.1S0
G1 X-1.25S0
G1 X-1.9S51
G1 X-0.1S67.8
G1 X-1.2S114.8
G1 X-0.1S99.9
G1 X-0.1S51.8
G1 X-1.6S51
G1 X-0.1S61.8
G1 X-0.9S114.8
G1 X-0.1S110.2
G1 X-0.1S54.8
G1 X-0.4S51
G1 X-0.1S108.7
G1 X-1.9S114.8
G1 X-1.7S51
G1 X-0.1S69.8
G1 X-0.6S114.8
G1 X-0.1S99.4
G1 X-0.4S51
G1 X-0.1S52
G1 X-0.1S103.5
G1 X-0.6S114.8
G1 X-0.5S51
G1 X-0.1S69.8
G1 X-0.6S114.8
G1 X-0.1S89.1
G1 X-0.5S51
G1 X-0.1S99.7
G1 X-0.6S114.8
G1 X-0.5S51
G1 X-0.1S62.5
G1 X-0.6S114.8
G1 X-0.1S93.2
G1 X-0.8S51
G1 X-0.1S92.4
G1 X-1.2S114.8
G1 X-0.1S75.8
G1 X-0.8S51
G1 X-0.6S114.8
G1 X-0.1S110
G1 X-0.1S57.5
G1 X-0.4S51
G1 X-0.1S78.9
G1 X-0.6S114.8
G1 X-0.1S89.1
G1 X-0.4S51
G1 X-0.1S59.5
G1 X-1.6S114.8
G1 X-0.1S69.1
G1 X-1.7S51
G1 X-0.1S103
G1 X-0.9S114.8
G1 X-0.1S75.3
G1 X-1S51
G1 X-0.1S53
G1 X-0.1S104.7
G1 X-0.6S114.8
G1 X-0.1S62.3
G1 X-3.5S51
G1 X-0.1S58
G1 X-0.6S114.8
G1 X-0.1S95.4
G1 X-0.5S51
G1 X-0.1S93.2
G1 X-0.6S114.8
G1 X-0.1S62.3
G1 X-0.4S51
G1 X-0.1S65.8
G1 X-0.6S114.8
G1 X-0.1S92.9
G1 X-0.5S51
G1 X-0.1S101.4
G1 X-0.5S114.8
G1 X-0.1S113.5
G1 X-0.1S64.3
G1 X-0.4S51
G1 X-0.1S76.9
G1 X-1.5S114.8
G1 X-0.1S112.5
G1 X-0.1S55.5
G1 X-3.5S51
G1 X-0.1S67.3
G1 X-1.3S114.8
G1 X-1.7S51
G1 X-0.1S58.3
G1 X-0.1S111
G1 X-0.9S114.8
G1 X-0.5S51
G1 X-0.1S86.4
G1 X-0.6S114.8
G1 X-0.1S72.3
G1 X-0.4S51
G1 X-0.1S52.8
G1 X-0.1S109
G1 X-0.5S114.8
G1 X-0.1S106
G1 X-0.8S51
G1 X-0.1S76.1
G1 X-1.2S114.8
G1 X-0.1S91.7
G1 X-0.8S51
G1 X-0.1S86.9
G1 X-0.6S114.8
G1 X-0.1S74.1
G1 X-0.5S51
G1 X-0.6S114.8
G1 X-0.1S105.7
G1 X-0.1S53.8
G1 X-0.4S51
G1 X-0.1S98.2
G1 X-1.8S114.8
G1 X-0.1S107.7
G1 X-0.1S54
G1 X-0.4S51
G1 X-0.1S112
G1 X-0.6S114.8
G1 X-0.1S68.3
G1 X-2.7S51
G1 X-1.25S0
G1 Y0.1S0
G1 X1.25S0
G1 X2.7S51
G1 X0.1S68.3
G1 X0.6S114.8
G1 X0.1S112
G1 X0.4S51
G1 X0.1S54
G1 X0.1S107.7
G1 X1.8S114.8
G1 X0.1S98.2
G1 X0.4S51
G1 X0.1S53.8
G1 X0.1S105.7
G1 X0.6S114.8
G1 X0.5S51
G1 X0.1S74.1
G1 X0.6S114.8
G1 X0.1S86.9
G1 X0.8S51
G1 X0.1S91.7
G1 X1.2S114.8
G1 X0.1S76.1
G1 X0.8S51
G1 X0.1S106
G1 X0.5S114.8
G1 X0.1S109
G1 X0.1S52.8
G1 X0.4S51
G1 X0.1S72.3
G1 X0.6S114.8
G1 X0.1S86.4
G1 X0.5S51
G1 X0.9S114.8
G1 X0.1S111
G1 X0.1S58.3
G1 X1.7S51
G1 X1.3S114.8
G1 X0.1S67.3
G1 X3.5S51
G1 X0.1S55.5
G1 X0.1S112.5
G1 X1.5S114.8
G1 X0.1S76.9
G1 X0.4S51
G1 X0.1S64.3
G1 X0.1S113.5
G1 X0.5S114.8
G1 X0.1S101.4
G1 X0.5S51
G1 X0.1S92.9
G1 X0.6S114.8
G1 X0.1S65.8
G1 X0.4S51
G1 X0.1S62.3
G1 X0.6S114.8
G1 X0.1S93.2
G1 X0.5S51
G1 X0.1S95.4
G1 X0.6S114.8
G1 X0.1S58
G1 X3.5S51
G1 X0.1S62.3
G1 X0.6S114.8
G1 X0.1S104.7
G1 X0.1S53
G1 X1S51
G1 X0.1S75.3
G1 X0.9S114.8
G1 X0.1S103
G1 X1.7S51
G1 X0.1S69.1
G1 X1.6S114.8
G1 X0.1S59.5
G1 X0.4S51
G1 X0.1S89.1
G1 X0.6S114.8
G1 X0.1S78.9
G1 X0.4S51
G1 X0.1S57.5
G1 X0.1S110
G1 X0.6S114.8
G1 X0.8S51
G1 X0.1S75.8
G1 X1.2S114.8
G1 X0.1S92.4
G1 X0.8S51
G1 X0.1S93.2
G1 X0.6S114.8
G1 X0.1S62.5
G1 X0.5S51
G1 X0.6S114.8
G1 X0.1S99.7
G1 X0.5S51
G1 X0.1S89.1
G1 X0.6S114.8
G1 X0.1S69.8
G1 X0.5S51
G1 X0.6S114.8
G1 X0.1S103.5
G1 X0.1S52
G1 X0.4S51
G1 X0.1S99.4
G1 X0.6S114.8
G1 X0.1S69.8
G1 X1.7S51
G1 X1.9S114.8
G1 X0.1S108.7
G1 X0.4S51
G1 X0.1S54.8
G1 X0.1S110.2
G1 X0.9S114.8
G1 X0.1S61.8
G1 X1.6S51
G1 X0.1S51.8
G1 X0.1S99.9
G1 X1.2S114.8
G1 X0.1S67.8
G1 X1.9S51
G1 X1.25S0
G1 Y0.1S0
G1 X-1.25S0
G1 X-1.9S51
G1 X-0.1S61.3
G1 X-0.9S85.1
G1 X-0.3S114.8
G1 X-0.1S109.2
G1 X-0.1S90.9
G1 X-0.1S90.4
G1 X-0.1S86.1
G1 X-0.1S53.8
G1 X-0.4S51
G1 X-0.1S79.6
G1 X-0.8S90.4
G1 X-0.1S94.9
G1 X-0.1S98.9
G1 X-0.1S85.1
G1 X-0.1S89.7
G1 X-0.6S114.8
G1 X-0.1S110.2
G1 X-0.1S54.8
G1 X-0.4S51
G1 X-0.1S108.7
G1 X-0.6S114.8
G1 X-0.1S94.4
G1 X-0.4S85.1
G1 X-0.1S92.7
G1 X-0.7S114.8
G1 X-0.4S51
G1 X-0.1S52.3
G1 X-0.1S84.1
G1 X-0.3S90.4
G1 X-0.8S51
G1 X-0.1S69.8
G1 X-0.6S114.8
G1 X-0.1S99.4
G1 X-0.4S51
G1 X-0.1S52
G1 X-0.1S103.5
G1 X-0.6S114.8
G1 X-0.5S51
G1 X-0.1S69.8
G1 X-0.6S114.8
G1 X-0.1S89.1
G1 X-0.5S51
G1 X-0.1S99.7
G1 X-0.6S114.8
G1 X-0.5S51
G1 X-0.1S62.5
G1 X-0.6S114.8
G1 X-0.1S93.2
G1 X-0.8S51
G1 X-0.1S73.8
G1 X-0.8S85.1
G1 X-0.1S93.7
G1 X-0.3S114.8
G1 X-0.1S99.9
G1 X-0.2S90.4
G1 X-0.1S75.1
G1 X-0.5S51
G1 X-0.6S114.8
G1 X-0.1S110
G1 X-0.1S57.5
G1 X-0.4S51
G1 X-0.1S78.9
G1 X-0.6S114.8
G1 X-0.1S89.1
G1 X-0.4S51
G1 X-0.1S59.5
G1 X-0.6S114.8
G1 X-0.1S114.2
G1 X-0.1S87.6
G1 X-0.8S85.1
G1 X-0.1S61.3
G1 X-0.7S51
G1 X-0.1S59.5
G1 X-0.9S90.4
G1 X-0.1S110.2
G1 X-0.2S85.1
G1 X-0.1S106.5
G1 X-0.6S114.8
G1 X-0.1S75.3
G1 X-1S51
G1 X-0.1S53
G1 X-0.1S104.7
G1 X-0.6S114.8
G1 X-0.1S62.3
G1 X-3.5S51
G1 X-0.1S58
G1 X-0.6S114.8
G1 X-0.1S95.4
G1 X-0.5S51
G1 X-0.1S93.2
G1 X-0.6S114.8
G1 X-0.1S62.3
G1 X-0.4S51
G1 X-0.1S65.8
G1 X-0.6S114.8
G1 X-0.1S92.9
G1 X-0.5S51
G1 X-0.1S101.4
G1 X-0.5S114.8
G1 X-0.1S113.5
G1 X-0.1S64.3
G1 X-0.4S51
G1 X-0.1S76.9
G1 X-0.6S114.8
G1 X-0.1S105
G1 X-0.8S85.1
G1 X-0.1S83.9
G1 X-0.1S53.8
G1 X-3.5S51
G1 X-0.1S60.3
G1 X-0.8S85.1
G1 X-0.1S87.1
G1 X-0.1S112.7
G1 X-0.3S114.8
G1 X-0.3S90.4
G1 X-0.1S57.3
G1 X-0.4S51
G1 X-0.1S72.1
G1 X-0.8S90.4
G1 X-0.1S93.4
G1 X-0.1S99.7
G1 X-0.1S85.1
G1 X-0.1S87.4
G1 X-0.1S111.7
G1 X-0.6S114.8
G1 X-0.5S51
G1 X-0.1S86.4
G1 X-0.6S114.8
G1 X-0.1S72.3
G1 X-0.4S51
G1 X-0.1S52.8
G1 X-0.1S109
G1 X-0.5S114.8
G1 X-0.1S106
G1 X-0.8S51
G1 X-0.1S65.6
G1 X-0.9S85.1
G1 X-0.3S114.8
G1 X-0.1S106.2
G1 X-0.2S90.4
G1 X-0.1S82.6
G1 X-0.5S51
G1 X-0.1S86.9
G1 X-0.6S114.8
G1 X-0.1S74.1
G1 X-0.5S51
G1 X-0.6S114.8
G1 X-0.1S105.7
G1 X-0.1S53.8
G1 X-0.4S51
G1 X-0.1S98.2
G1 X-0.6S114.8
G1 X-0.1S95.7
G1 X-0.4S85.1
G1 X-0.1S89.9
G1 X-0.6S114.8
G1 X-0.1S107.7
G1 X-0.1S54
G1 X-0.4S51
G1 X-0.1S83.6
G1 X-0.2S85.1
G1 X-0.1S104.2
G1 X-0.3S114.8
G1 X-0.1S97.4
G1 X-0.8S90.4
G1 X-0.1S75.8
G1 X-1.8S51
G1 X-1.25S0
G1 Y0.1S0
G1 X1.25S0
G1 X1.8S51
G1 X0.1S91.2
G1 X1.2S114.8
G1 X0.1S90.7
G1 X0.7S51
G1 X0.1S54
G1 X0.1S107.7
G1 X0.6S114.8
G1 X0.1S61.3
G1 X0.4S51
G1 X0.1S72.8
G1 X0.6S114.8
G1 X0.1S98.2
G1 X0.4S51
G1 X0.1S53.8
G1 X0.1S105.7
G1 X0.6S114.8
G1 X0.5S51
G1 X0.1S74.1
G1 X0.6S114.8
G1 X0.1S86.9
G1 X0.5S51
G1 X0.1S101.7
G1 X0.6S114.8
G1 X1.8S51
G1 X0.1S106
G1 X0.5S114.8
G1 X0.1S109
G1 X0.1S52.8
G1 X0.4S51
G1 X0.1S72.3
G1 X0.6S114.8
G1 X0.1S86.4
G1 X0.5S51
G1 X0.6S114.8
G1 X0.1S107.7
G1 X0.1S55.5
G1 X0.1S51
G1 X0.1S84.1
G1 X0.9S114.8
G1 X0.1S85.1
G1 X0.4S51
G1 X0.1S60.3
G1 X0.6S114.8
G1 X0.1S110.5
G1 X0.1S55
G1 X5.4S51
G1 X0.1S93.7
G1 X0.6S114.8
G1 X0.1S76.9
G1 X0.4S51
G1 X0.1S64.3
G1 X0.1S113.5
G1 X0.5S114.8
G1 X0.1S101.4
G1 X0.5S51
G1 X0.1S92.9
G1 X0.6S114.8
G1 X0.1S65.8
G1 X0.4S51
G1 X0.1S62.3
G1 X0.6S114.8
G1 X0.1S93.2
G1 X0.5S51
G1 X0.1S95.4
G1 X0.6S114.8
G1 X0.1S58
G1 X3.5S51
G1 X0.1S62.3
G1 X0.6S114.8
G1 X0.1S104.7
G1 X0.1S53
G1 X1S51
G1 X0.1S75.3
G1 X0.6S114.8
G1 X0.1S96.9
G1 X0.2S51
G1 X1S114.8
G1 X0.1S64.3
G1 X1.6S51
G1 X0.1S55.8
G1 X0.1S113.5
G1 X0.6S114.8
G1 X0.1S59.5
G1 X0.4S51
G1 X0.1S89.1
G1 X0.6S114.8
G1 X0.1S78.9
G1 X0.4S51
G1 X0.1S57.5
G1 X0.1S110
G1 X0.6S114.8
G1 X0.5S51
G1 X0.1S89.7
G1 X0.6S114.8
G1 X0.1S69.1
G1 X1.7S51
G1 X0.1S93.2
G1 X0.6S114.8
G1 X0.1S62.5
G1 X0.5S51
G1 X0.6S114.8
G1 X0.1S99.7
G1 X0.5S51
G1 X0.1S89.1
G1 X0.6S114.8
G1 X0.1S69.8
G1 X0.5S51
G1 X0.6S114.8
G1 X0.1S103.5
G1 X0.1S52
G1 X0.4S51
G1 X0.1S99.4
G1 X0.6S114.8
G1 X0.1S69.8
G1 X0.8S51
G1 X0.3S114.8
G1 X0.1S104.5
G1 X0.1S53
G1 X0.4S51
G1 X0.7S114.8
G1 X0.1S66.6
G1 X0.4S51
G1 X0.1S69.8
G1 X0.6S114.8
G1 X0.1S108.7
G1 X0.4S51
G1 X0.1S54.8
G1 X0.1S110.2
G1 X0.6S114.8
G1 X0.1S60.5
G1 X0.1S51
G1 X0.1S79.6
G1 X0.9S114.8
G1 X0.1S97.2
G1 X0.4S51
G1 X0.1S55.3
G1 X0.1S107.5
G1 X0.6S114.8
G1 X2.9S51
G1 X1.25S0
G1 Y0.1S0
G1 X-1.25S0
G1 X-2.9S51
G1 X-0.6S114.8
G1 X-0.1S107.5
G1 X-0.1S55.3
G1 X-0.4S51
G1 X-0.1S97.2
G1 X-0.9S114.8
G1 X-0.1S79.6
G1 X-0.1S51
G1 X-0.1S60.5
G1 X-0.6S114.8
G1 X-0.1S110.2
G1 X-0.1S54.8
G1 X-0.4S51
G1 X-0.1S108.7
G1 X-0.6S114.8
G1 X-0.1S69.8
G1 X-0.4S51
G1 X-0.1S66.6
G1 X-0.7S114.8
G1 X-0.4S51
G1 X-0.1S53
G1 X-0.1S104.5
G1 X-0.3S114.8
G1 X-0.8S51
G1 X-0.1S69.8
G1 X-0.6S114.8
G1 X-0.1S99.4
G1 X-0.4S51
G1 X-0.1S52
G1 X-0.1S103.5
G1 X-0.6S114.8
G1 X-0.5S51
G1 X-0.1S69.8
G1 X-0.6S114.8
G1 X-0.1S89.1
G1 X-0.5S51
G1 X-0.1S99.7
G1 X-0.6S114.8
G1 X-0.5S51
G1 X-0.1S62.5
G1 X-0.6S114.8
G1 X-0.1S93.2
G1 X-1.7S51
G1 X-0.1S69.1
G1 X-0.6S114.8
G1 X-0.1S89.7
G1 X-0.5S51
G1 X-0.6S114.8
G1 X-0.1S110
G1 X-0.1S57.5
G1 X-0.4S51
G1 X-0.1S78.9
G1 X-0.6S114.8
G1 X-0.1S89.1
G1 X-0.4S51
G1 X-0.1S59.5
G1 X-0.6S114.8
G1 X-0.1S113.5
G1 X-0.1S55.8
G1 X-1.6S51
G1 X-0.1S64.3
G1 X-1S114.8
G1 X-0.2S51
G1 X-0.1S96.9
G1 X-0.6S114.8
G1 X-0.1S75.3
G1 X-1S51
G1 X-0.1S53
G1 X-0.1S104.7
G1 X-0.6S114.8
G1 X-0.1S62.3
G1 X-3.5S51
G1 X-0.1S58
G1 X-0.6S114.8
G1 X-0.1S95.4
G1 X-0.5S51
G1 X-0.1S93.2
G1 X-0.6S114.8
G1 X-0.1S62.3
G1 X-0.4S51
G1 X-0.1S65.8
G1 X-0.6S114.8
G1 X-0.1S92.9
G1 X-0.5S51
G1 X-0.1S101.4
G1 X-0.5S114.8
G1 X-0.1S113.5
G1 X-0.1S64.3
G1 X-0.4S51
G1 X-0.1S76.9
G1 X-0.6S114.8
G1 X-0.1S93.7
G1 X-5.4S51
G1 X-0.1S55
G1 X-0.1S110.5
G1 X-0.6S114.8
G1 X-0.1S60.3
G1 X-0.4S51
G1 X-0.1S85.1
G1 X-0.9S114.8
G1 X-0.1S84.1
G1 X-0.1S51
G1 X-0.1S55.5
G1 X-0.1S107.7
G1 X-0.6S114.8
G1 X-0.5S51
G1 X-0.1S86.4
G1 X-0.6S114.8
G1 X-0.1S72.3
G1 X-0.4S51
G1 X-0.1S52.8
G1 X-0.1S109
G1 X-0.5S114.8
G1 X-0.1S106
G1 X-1.8S51
G1 X-0.6S114.8
G1 X-0.1S101.7
G1 X-0.5S51
G1 X-0.1S86.9
G1 X-0.6S114.8
G1 X-0.1S74.1
G1 X-0.5S51
G1 X-0.6S114.8
G1 X-0.1S105.7
G1 X-0.1S53.8
G1 X-0.4S51
G1 X-0.1S98.2
G1 X-0.6S114.8
G1 X-0.1S72.8
G1 X-0.4S51
G1 X-0.1S61.3
G1 X-0.6S114.8
G1 X-0.1S107.7
G1 X-0.1S54
G1 X-0.7S51
G1 X-0.1S90.7
G1 X-1.2S114.8
G1 X-0.1S91.2
G1 X-1.8S51
G1 X-1.25S0
G1 Y0.1S0
G1 X1.25S0
G1 X1.5S51
G1 X0.1S72.8
G1 X0.2S73.3
G1 X0.1S100.2
G1 X0.3S114.8
G1 X0.1S95.9
G1 X0.8S88.4
G1 X0.1S74.6
G1 X0.7S51
G1 X0.1S53
G1 X0.1S84.4
G1 X0.2S88.4
G1 X0.1S108.5
G1 X0.3S114.8
G1 X0.1S80.1
G1 X0.4S73.3
G1 X0.1S87.9
G1 X0.3S114.8
G1 X0.1S100.9
G1 X0.2S88.4
G1 X0.1S79.1
G1 X0.4S51
G1 X0.1S53.8
G1 X0.1S105.7
G1 X0.6S114.8
G1 X0.5S73.3
G1 X0.1S88.4
G1 X0.3S114.8
G1 X0.1S96.4
G1 X0.2S88.4
G1 X0.1S72.8
G1 X0.5S51
G1 X0.1S81.1
G1 X0.2S88.4
G1 X0.1S105.2
G1 X0.3S114.8
G1 X0.9S73.3
G1 X0.1S60.8
G1 X0.8S51
G1 X0.1S83.6
G1 X0.2S88.4
G1 X0.1S106.7
G1 X0.2S114.8
G1 X0.1S111.2
G1 X0.1S74.8
G1 X0.4S73.3
G1 X0.1S87.4
G1 X0.3S114.8
G1 X0.1S96.9
G1 X0.2S88.4
G1 X0.1S72.3
G1 X0.5S51
G1 X0.6S114.8
G1 X0.1S107.7
G1 X0.1S55.5
G1 X0.1S51
G1 X0.1S71.3
G1 X0.2S88.4
G1 X0.1S101.4
G1 X0.6S114.8
G1 X0.1S85.1
G1 X0.4S51
G1 X0.1S57.3
G1 X0.3S88.4
G1 X0.3S114.8
G1 X0.1S112
G1 X0.1S76.1
G1 X0.8S73.3
G1 X0.1S57.3
G1 X3.5S51
G1 X0.1S52.8
G1 X0.1S72.6
G1 X0.8S73.3
G1 X0.1S101.2
G1 X0.3S114.8
G1 X0.1S93.2
G1 X0.2S88.4
G1 X0.1S67.1
G1 X0.4S51
G1 X0.1S64.3
G1 X0.1S113.5
G1 X0.5S114.8
G1 X0.1S106.7
G1 X0.5S73.3
G1 X0.1S100.7
G1 X0.3S114.8
G1 X0.3S88.4
G1 X0.1S60.8
G1 X0.4S51
G1 X0.1S57.5
G1 X0.2S88.4
G1 X0.1S90.2
G1 X0.1S113
G1 X0.2S114.8
G1 X0.1S101.2
G1 X0.5S73.3
G1 X0.1S102.5
G1 X0.6S114.8
G1 X0.1S58
G1 X3.5S51
G1 X0.1S62.3
G1 X0.6S114.8
G1 X0.1S104.7
G1 X0.1S53
G1 X1S51
G1 X0.1S75.3
G1 X0.6S114.8
G1 X0.1S96.9
G1 X0.2S51
G1 X0.3S88.4
G1 X0.7S114.8
G1 X0.1S64.3
G1 X0.7S51
G1 X0.1S58
G1 X0.8S73.3
G1 X0.1S76.6
G1 X0.1S114
G1 X0.3S114.8
G1 X0.3S88.4
G1 X0.1S56.5
G1 X0.4S51
G1 X0.1S89.1
G1 X0.6S114.8
G1 X0.1S92.2
G1 X0.4S73.3
G1 X0.1S77.9
G1 X0.1S111.7
G1 X0.2S114.8
G1 X0.1S109.5
G1 X0.3S88.4
G1 X0.5S51
G1 X0.1S74.1
G1 X0.2S88.4
G1 X0.1S98.7
G1 X0.3S114.8
G1 X0.1S85.1
G1 X0.8S73.3
G1 X0.1S66.1
G1 X0.8S51
G1 X0.1S76.3
G1 X0.2S88.4
G1 X0.1S100.2
G1 X0.3S114.8
G1 X0.1S80.9
G1 X0.5S73.3
G1 X0.6S114.8
G1 X0.1S99.7
G1 X0.5S51
G1 X0.1S89.1
G1 X0.6S114.8
G1 X0.1S69.8
G1 X0.5S51
G1 X0.6S114.8
G1 X0.1S103.5
G1 X0.1S52
G1 X0.4S51
G1 X0.1S79.9
G1 X0.2S88.4
G1 X0.1S101.7
G1 X0.3S114.8
G1 X0.1S86.1
G1 X0.8S73.3
G1 X0.1S106.7
G1 X0.2S88.4
G1 X0.1S82.6
G1 X0.1S52.3
G1 X0.4S51
G1 X0.3S88.4
G1 X0.1S106.7
G1 X0.3S114.8
G1 X0.1S83.9
G1 X0.4S73.3
G1 X0.1S86.1
G1 X0.3S114.8
G1 X0.1S104.2
G1 X0.2S88.4
G1 X0.1S84.9
G1 X0.4S51
G1 X0.1S54.8
G1 X0.1S110.2
G1 X0.6S114.8
G1 X0.1S60.5
G1 X0.1S51
G1 X0.1S68.1
G1 X0.2S88.4
G1 X0.1S98.9
G1 X0.6S114.8
G1 X0.1S97.2
G1 X0.4S51
G1 X0.1S53.5
G1 X0.1S84.4
G1 X0.1S88.4
G1 X0.1S88.9
G1 X0.1S108.7
G1 X0.3S114.8
G1 X0.9S73.3
G1 X0.1S58
G1 X1.9S51
G1 X1.25S0
G1 Y0.1S0
G1 X-1.25S0
G1 X-1.9S51
G1 X-0.1S67.8
G1 X-1.2S114.8
G1 X-0.1S99.9
G1 X-0.1S51.8
G1 X-0.7S51
G1 X-0.1S97.2
G1 X-0.6S114.8
G1 X-0.1S75.3
G1 X-0.4S51
G1 X-0.1S60.5
G1 X-0.6S114.8
G1 X-0.1S110.2
G1 X-0.1S54.8
G1 X-0.7S51
G1 X-0.1S88.1
G1 X-1.2S114.8
G1 X-0.1S93.7
G1 X-1.1S51
G1 X-0.1S95.2
G1 X-1.2S114.8
G1 X-0.1S81.9
G1 X-0.7S51
G1 X-0.1S52
G1 X-0.1S103.5
G1 X-0.6S114.8
G1 X-0.5S51
G1 X-0.1S69.8
G1 X-0.6S114.8
G1 X-0.1S89.1
G1 X-0.5S51
G1 X-0.1S99.7
G1 X-1.5S114.8
G1 X-0.1S79.4
G1 X-1.1S51
G1 X-0.1S92.4
G1 X-1.2S114.8
G1 X-0.1S75.8
G1 X-1.1S51
G1 X-0.1S101.2
G1 X-1.5S114.8
G1 X-0.1S89.1
G1 X-0.8S51
G1 X-1.3S114.8
G1 X-0.1S69.1
G1 X-0.7S51
G1 X-0.1S64.3
G1 X-0.7S114.8
G1 X-0.5S51
G1 X-0.1S96.9
G1 X-0.6S114.8
G1 X-0.1S75.3
G1 X-1S51
G1 X-0.1S53
G1 X-0.1S104.7
G1 X-0.6S114.8
G1 X-0.1S62.3
G1 X-3.5S51
G1 X-0.1S58
G1 X-1.5S114.8
G1 X-0.1S109.7
G1 X-0.1S54.8
G1 X-1.1S51
G1 X-1.5S114.8
G1 X-0.1S113.5
G1 X-0.1S64.3
G1 X-0.7S51
G1 X-0.1S62.5
G1 X-1.2S114.8
G1 X-0.1S112.5
G1 X-0.1S55.5
G1 X-3.5S51
G1 X-0.1S67.3
G1 X-1.3S114.8
G1 X-0.8S51
G1 X-0.1S85.1
G1 X-0.6S114.8
G1 X-0.1S80.9
G1 X-0.4S51
G1 X-0.1S55.5
G1 X-0.1S107.7
G1 X-0.6S114.8
G1 X-0.8S51
G1 X-0.1S71.6
G1 X-1.2S114.8
G1 X-0.1S94.7
G1 X-1.1S51
G1 X-0.1S76.1
G1 X-1.2S114.8
G1 X-0.1S91.7
G1 X-1.1S51
G1 X-0.1S70.6
G1 X-1.5S114.8
G1 X-0.1S105.7
G1 X-0.1S53.8
G1 X-0.7S51
G1 X-0.1S79.9
G1 X-1.2S114.8
G1 X-0.1S99.4
G1 X-2S51
G1 X-0.1S68.1
G1 X-0.6S114.8
G1 X-0.1S112.7
G1 X-1.5S51
G1 X-1.25S0
G1 Y0.1S0
G1 X1.25S0
G1 X1.5S51
G1 X0.1S112.7
G1 X0.6S114.8
G1 X0.1S68.1
G1 X2S51
G1 X0.1S99.4
G1 X1.2S114.8
G1 X0.1S79.9
G1 X0.7S51
G1 X0.1S53.8
G1 X0.1S105.7
G1 X1.5S114.8
G1 X0.1S70.6
G1 X1.1S51
G1 X0.1S91.7
G1 X1.2S114.8
G1 X0.1S76.1
G1 X1.1S51
G1 X0.1S94.7
G1 X1.2S114.8
G1 X0.1S71.6
G1 X0.8S51
G1 X0.6S114.8
G1 X0.1S107.7
G1 X0.1S55.5
G1 X0.4S51
G1 X0.1S80.9
G1 X0.6S114.8
G1 X0.1S85.1
G1 X0.8S51
G1 X1.3S114.8
G1 X0.1S67.3
G1 X3.5S51
G1 X0.1S55.5
G1 X0.1S112.5
G1 X1.2S114.8
G1 X0.1S62.5
G1 X0.7S51
G1 X0.1S64.3
G1 X0.1S113.5
G1 X1.5S114.8
G1 X1.1S51
G1 X0.1S54.8
G1 X0.1S109.7
G1 X1.5S114.8
G1 X0.1S58
G1 X3.5S51
G1 X0.1S62.3
G1 X0.6S114.8
G1 X0.1S104.7
G1 X0.1S53
G1 X1S51
G1 X0.1S75.3
G1 X0.6S114.8
G1 X0.1S96.9
G1 X0.5S51
G1 X0.7S114.8
G1 X0.1S64.3
G1 X0.7S51
G1 X0.1S69.1
G1 X1.3S114.8
G1 X0.8S51
G1 X0.1S89.1
G1 X1.5S114.8
G1 X0.1S101.2
G1 X1.1S51
G1 X0.1S75.8
G1 X1.2S114.8
G1 X0.1S92.4
G1 X1.1S51
G1 X0.1S79.4
G1 X1.5S114.8
G1 X0.1S99.7
G1 X0.5S51
G1 X0.1S89.1
G1 X0.6S114.8
G1 X0.1S69.8
G1 X0.5S51
G1 X0.6S114.8
G1 X0.1S103.5
G1 X0.1S52
G1 X0.7S51
G1 X0.1S81.9
G1 X1.2S114.8
G1 X0.1S95.2
G1 X1.1S51
G1 X0.1S93.7
G1 X1.2S114.8
G1 X0.1S88.1
G1 X0.7S51
G1 X0.1S54.8
G1 X0.1S110.2
G1 X0.6S114.8
G1 X0.1S60.5
G1 X0.4S51
G1 X0.1S75.3
G1 X0.6S114.8
G1 X0.1S97.2
G1 X0.7S51
G1 X0.1S51.8
G1 X0.1S99.9
G1 X1.2S114.8
G1 X0.1S67.8
G1 X1.9S51
G1 X1.25S0
G1 Y0.1S0
G1 X-1.25S0
G1 X-1.9S51
G1 X-0.1S65.3
G1 X-1.2S102.7
G1 X-0.1S90.9
G1 X-0.1S51.5
G1 X-0.7S51
G1 X-0.1S88.6
G1 X-0.6S102.7
G1 X-0.1S70.8
G1 X-0.4S51
G1 X-0.1S59
G1 X-0.6S102.7
G1 X-0.1S99.2
G1 X-0.1S54.3
G1 X-0.7S51
G1 X-0.1S81.4
G1 X-1.2S102.7
G1 X-0.1S85.6
G1 X-1.1S51
G1 X-0.1S86.9
G1 X-1.2S102.7
G1 X-0.1S76.6
G1 X-0.7S51
G1 X-0.1S51.8
G1 X-0.1S93.9
G1 X-0.6S102.7
G1 X-0.5S51
G1 X-0.1S66.3
G1 X-0.6S102.7
G1 X-0.1S82.4
G1 X-0.5S51
G1 X-0.1S99.7
G1 X-0.6S114.8
G1 X-0.9S102.7
G1 X-0.1S74.3
G1 X-1.1S51
G1 X-0.1S84.9
G1 X-1.2S102.7
G1 X-0.1S71.1
G1 X-1.1S51
G1 X-0.1S91.7
G1 X-1.5S102.7
G1 X-0.1S82.1
G1 X-0.8S51
G1 X-1.3S102.7
G1 X-0.1S66.1
G1 X-0.7S51
G1 X-0.1S62
G1 X-0.7S102.7
G1 X-0.5S51
G1 X-0.1S88.1
G1 X-0.6S102.7
G1 X-0.1S71.1
G1 X-1S51
G1 X-0.1S53
G1 X-0.1S104.7
G1 X-0.6S114.8
G1 X-0.1S62.3
G1 X-3.5S51
G1 X-0.1S58
G1 X-0.6S114.8
G1 X-0.1S111.5
G1 X-0.8S102.7
G1 X-0.1S98.7
G1 X-0.1S54
G1 X-1.1S51
G1 X-1.5S102.7
G1 X-0.1S101.7
G1 X-0.1S61.8
G1 X-0.7S51
G1 X-0.1S60.8
G1 X-1.2S102.7
G1 X-0.1S100.9
G1 X-0.1S54.8
G1 X-3.5S51
G1 X-0.1S64.6
G1 X-1.3S102.7
G1 X-0.8S51
G1 X-0.1S78.6
G1 X-0.6S102.7
G1 X-0.1S75.8
G1 X-0.4S51
G1 X-0.1S54.8
G1 X-0.1S97.2
G1 X-0.6S102.7
G1 X-0.8S51
G1 X-0.1S67.8
G1 X-1.2S102.7
G1 X-0.1S86.6
G1 X-1.1S51
G1 X-0.1S71.8
G1 X-1.2S102.7
G1 X-0.1S84.4
G1 X-1.1S51
G1 X-0.1S67.3
G1 X-1.5S102.7
G1 X-0.1S95.7
G1 X-0.1S53.3
G1 X-0.7S51
G1 X-0.1S74.8
G1 X-1.2S102.7
G1 X-0.1S90.4
G1 X-0.8S51
G1 X-0.1S69.8
G1 X-0.3S70.6
G1 X-0.1S53.5
G1 X-0.7S51
G1 X-0.1S68.1
G1 X-0.6S114.8
G1 X-0.1S112.7
G1 X-1.5S51
G1 X-1.25S0
G1 Y0.1S0
G1 X1.25S0
G1 X1.5S51
G1 X0.1S112.7
G1 X0.6S114.8
G1 X0.1S68.1
G1 X0.7S51
G1 X0.1S58.3
G1 X0.3S114.8
G1 X0.1S112
G1 X24.2S51
G1 X0.1S95.4
G1 X0.6S114.8
G1 X0.1S58
G1 X3.5S51
G1 X0.1S62.3
G1 X0.6S114.8
G1 X0.1S104.7
G1 X0.1S53
G1 X12.3S51
G1 X0.6S114.8
G1 X0.1S99.7
G1 X14.1S51
G1 X1.25S0
G1 Y0.1S0
G1 X-1.25S0
G1 X-14.1S51
G1 X-0.1S99.7
G1 X-0.6S114.8
G1 X-12.3S51
G1 X-0.1S53
G1 X-0.1S104.7
G1 X-0.6S114.8
G1 X-0.1S62.3
G1 X-3.5S51
G1 X-0.1S58
G1 X-0.6S114.8
G1 X-0.1S95.4
G1 X-24.2S51
G1 X-0.1S112
G1 X-0.3S114.8
G1 X-0.1S58.3
G1 X-0.7S51
G1 X-0.1S68.1
G1 X-0.6S114.8
G1 X-0.1S112.7
G1 X-1.5S51
G1 X-1.25S0
G1 Y0.1S0
G1 X1.25S0
G1 X1.5S51
G1 X0.1S103
G1 X0.2S104.5
G1 X0.1S111.2
G1 X0.3S114.8
G1 X0.1S74.3
G1 X0.7S59.5
G1 X0.1S65.8
G1 X0.1S111.2
G1 X0.2S104.5
G1 X0.1S102.2
G1 X24.2S51
G1 X0.1S95.4
G1 X0.6S114.8
G1 X0.1S58
G1 X2.9S51
G1 X0.1S55.5
G1 X0.5S59.5
G1 X0.1S69.1
G1 X0.6S114.8
G1 X0.1S106
G1 X0.1S61.5
G1 X0.4S59.5
G1 X0.1S59.3
G1 X0.1S52.5
G1 X11.7S51
G1 X0.6S114.8
G1 X0.1S99.7
G1 X14.1S51
G1 X1.25S0
G1 Y0.1S0
G1 X-1.25S0
G1 X-14.1S51
G1 X-0.1S99.7
G1 X-0.6S114.8
G1 X-11.7S51
G1 X-0.1S61
G1 X-0.1S114
G1 X-1.8S114.8
G1 X-0.1S78.9
G1 X-2.9S51
G1 X-0.1S58
G1 X-0.6S114.8
G1 X-0.1S95.4
G1 X-24.5S51
G1 X-0.1S90.7
G1 X-1.2S114.8
G1 X-0.1S91.2
G1 X-1.8S51
G1 X-1.25S0
G1 Y0.1S0
G1 X1.25S0
G1 X1.8S51
G1 X0.1S91.2
G1 X1.2S114.8
G1 X0.1S90.7
G1 X24.5S51
G1 X0.1S95.4
G1 X0.6S114.8
G1 X0.1S58
G1 X2.9S51
G1 X0.1S78.9
G1 X1.8S114.8
G1 X0.1S114
G1 X0.1S61
G1 X11.7S51
G1 X0.6S114.8
G1 X0.1S99.7
G1 X14.1S51
G1 X1.25S0
G1 Y0.1S0
G1 X-1.25S0
G1 X-14.1S51
G1 X-0.1S99.7
G1 X-0.6S114.8
G1 X-11.7S51
G1 X-0.1S61
G1 X-0.1S114
G1 X-1.8S114.8
G1 X-0.1S78.9
G1 X-2.9S51
G1 X-0.1S58
G1 X-0.6S114.8
G1 X-0.1S95.4
G1 X-24.5S51
G1 X-0.1S90.7
G1 X-1.2S114.8
G1 X-0.1S91.2
G1 X-1.8S51
G1 X-1.25S0
G1 Y0.1S0
G1 X1.25S0
G1 X60S51
G1 X1.25S0
G1 Y0.1S0
G1 X-1.25S0
G1 X-60S51
G1 X-1.25S0
G1 Y0.1S0
G1 X1.25S0
G1 X60S51
G1 X1.25S0
G1 Y0.1S0
G1 X-1.25S0
G1 X-60S51
G1 X-1.25S0
G1 Y0.1S0
G1 X1.25S0
G1 X60S51
G1 X1.25S0
G1 Y0.1S0
G1 X-1.25S0
G1 X-60S51
G1 X-1.25S0
G1 Y0.1S0
G1 X1.25S0
G1 X60S51
G1 X1.25S0
G1 Y0.1S0
G1 X-1.25S0
G1 X-60S51
G1 X-1.25S0
G1 Y0.1S0
G1 X1.25S0
G1 X60S51
G1 X1.25S0
G90
; Cut @ 300 mm/min, 75% power
M8
G0 X257.091Y147.939
; Layer C00 Pass 1 of 3
G1 X256.908Y148.161S191.3F300
G1 X256.77Y148.416
G1 X256.682Y148.698
G1 X256.652Y149
G1 X256.682Y149.302
G1 X256.77Y149.584
G1 X256.908Y149.839
G1 X257.091Y150.061
G1 X257.313Y150.244
G1 X257.568Y150.382
G1 X257.849Y150.47
G1 X258.152Y150.5
G1 X258.454Y150.47
G1 X258.736Y150.382
G1 X258.99Y150.244
G1 X259.212Y150.061
G1 X259.396Y149.839
G1 X259.534Y149.584
G1 X259.621Y149.302
G1 X259.652Y149
G1 X259.621Y148.698
G1 X259.534Y148.416
G1 X259.396Y148.161
G1 X259.212Y147.939
G1 X258.99Y147.756
G1 X258.736Y147.618
G1 X258.454Y147.53
G1 X258.152Y147.5
G1 X257.849Y147.53
G1 X257.568Y147.618
G1 X257.313Y147.756
G1 X257.091Y147.939
; Layer C00 Pass 2 of 3
G1 X256.908Y148.161
G1 X256.77Y148.416
G1 X256.682Y148.698
G1 X256.652Y149
G1 X256.682Y149.302
G1 X256.77Y149.584
G1 X256.908Y149.839
G1 X257.091Y150.061
G1 X257.313Y150.244
G1 X257.568Y150.382
G1 X257.849Y150.47
G1 X258.152Y150.5
G1 X258.454Y150.47
G1 X258.736Y150.382
G1 X258.99Y150.244
G1 X259.212Y150.061
G1 X259.396Y149.839
G1 X259.534Y149.584
G1 X259.621Y149.302
G1 X259.652Y149
G1 X259.621Y148.698
G1 X259.534Y148.416
G1 X259.396Y148.161
G1 X259.212Y147.939
G1 X258.99Y147.756
G1 X258.736Y147.618
G1 X258.454Y147.53
G1 X258.152Y147.5
G1 X257.849Y147.53
G1 X257.568Y147.618
G1 X257.313Y147.756
G1 X257.091Y147.939
; Layer C00 Pass 3 of 3
G1 X256.908Y148.161
G1 X256.77Y148.416
G1 X256.682Y148.698
G1 X256.652Y149
G1 X256.682Y149.302
G1 X256.77Y149.584
G1 X256.908Y149.839
G1 X257.091Y150.061
G1 X257.313Y150.244
G1 X257.568Y150.382
G1 X257.849Y150.47
G1 X258.152Y150.5
G1 X258.454Y150.47
G1 X258.736Y150.382
G1 X258.99Y150.244
G1 X259.212Y150.061
G1 X259.396Y149.839
G1 X259.534Y149.584
G1 X259.621Y149.302
G1 X259.652Y149
G1 X259.621Y148.698
G1 X259.534Y148.416
G1 X259.396Y148.161
G1 X259.212Y147.939
G1 X258.99Y147.756
G1 X258.736Y147.618
G1 X258.454Y147.53
G1 X258.152Y147.5
G1 X257.849Y147.53
G1 X257.568Y147.618
G1 X257.313Y147.756
G1 X257.091Y147.939
G0 X264.931Y142.017
; Layer C00 Pass 1 of 3
G1 X265.186Y142.155
G1 X265.467Y142.243
G1 X265.769Y142.273
G1 X266.072Y142.243
G1 X266.353Y142.155
G1 X266.608Y142.017
G1 X266.83Y141.834
G1 X267.013Y141.612
G1 X267.152Y141.357
G1 X267.239Y141.075
G1 X267.269Y140.773
G1 X267.239Y140.471
G1 X267.152Y140.189
G1 X267.013Y139.934
G1 X266.83Y139.712
G1 X266.608Y139.529
G1 X266.353Y139.391
G1 X266.072Y139.303
G1 X265.769Y139.273
G1 X265.467Y139.303
G1 X265.186Y139.391
G1 X264.931Y139.529
G1 X264.709Y139.712
G1 X264.526Y139.934
G1 X264.387Y140.189
G1 X264.3Y140.471
G1 X264.269Y140.773
G1 X264.3Y141.075
G1 X264.387Y141.357
G1 X264.526Y141.612
G1 X264.709Y141.834
G1 X264.931Y142.017
; Layer C00 Pass 2 of 3
G1 X265.186Y142.155
G1 X265.467Y142.243
G1 X265.769Y142.273
G1 X266.072Y142.243
G1 X266.353Y142.155
G1 X266.608Y142.017
G1 X266.83Y141.834
G1 X267.013Y141.612
G1 X267.152Y141.357
G1 X267.239Y141.075
G1 X267.269Y140.773
G1 X267.239Y140.471
G1 X267.152Y140.189
G1 X267.013Y139.934
G1 X266.83Y139.712
G1 X266.608Y139.529
G1 X266.353Y139.391
G1 X266.072Y139.303
G1 X265.769Y139.273
G1 X265.467Y139.303
G1 X265.186Y139.391
G1 X264.931Y139.529
G1 X264.709Y139.712
G1 X264.526Y139.934
G1 X264.387Y140.189
G1 X264.3Y140.471
G1 X264.269Y140.773
G1 X264.3Y141.075
G1 X264.387Y141.357
G1 X264.526Y141.612
G1 X264.709Y141.834
G1 X264.931Y142.017
; Layer C00 Pass 3 of 3
G1 X265.186Y142.155
G1 X265.467Y142.243
G1 X265.769Y142.273
G1 X266.072Y142.243
G1 X266.353Y142.155
G1 X266.608Y142.017
G1 X266.83Y141.834
G1 X267.013Y141.612
G1 X267.152Y141.357
G1 X267.239Y141.075
G1 X267.269Y140.773
G1 X267.239Y140.471
G1 X267.152Y140.189
G1 X267.013Y139.934
G1 X266.83Y139.712
G1 X266.608Y139.529
G1 X266.353Y139.391
G1 X266.072Y139.303
G1 X265.769Y139.273
G1 X265.467Y139.303
G1 X265.186Y139.391
G1 X264.931Y139.529
G1 X264.709Y139.712
G1 X264.526Y139.934
G1 X264.387Y140.189
G1 X264.3Y140.471
G1 X264.269Y140.773
G1 X264.3Y141.075
G1 X264.387Y141.357
G1 X264.526Y141.612
G1 X264.709Y141.834
G1 X264.931Y142.017
G0 X266.005Y169.573
; Layer C00 Pass 1 of 3
G1 X265.703Y169.603
G1 X265.422Y169.691
G1 X265.167Y169.829
G1 X264.945Y170.012
G1 X264.762Y170.234
G1 X264.623Y170.489
G1 X264.536Y170.771
G1 X264.505Y171.073
G1 X264.536Y171.375
G1 X264.623Y171.657
G1 X264.762Y171.912
G1 X264.945Y172.134
G1 X265.167Y172.317
G1 X265.422Y172.455
G1 X265.703Y172.543
G1 X266.005Y172.573
G1 X266.308Y172.543
G1 X266.589Y172.455
G1 X266.844Y172.317
G1 X267.066Y172.134
G1 X267.249Y171.912
G1 X267.388Y171.657
G1 X267.475Y171.375
G1 X267.505Y171.073
G1 X267.475Y170.771
G1 X267.388Y170.489
G1 X267.249Y170.234
G1 X267.066Y170.012
G1 X266.844Y169.829
G1 X266.589Y169.691
G1 X266.308Y169.603
G1 X266.005Y169.573
; Layer C00 Pass 2 of 3
G1 X265.703Y169.603
G1 X265.422Y169.691
G1 X265.167Y169.829
G1 X264.945Y170.012
G1 X264.762Y170.234
G1 X264.623Y170.489
G1 X264.536Y170.771
G1 X264.505Y171.073
G1 X264.536Y171.375
G1 X264.623Y171.657
G1 X264.762Y171.912
G1 X264.945Y172.134
G1 X265.167Y172.317
G1 X265.422Y172.455
G1 X265.703Y172.543
G1 X266.005Y172.573
G1 X266.308Y172.543
G1 X266.589Y172.455
G1 X266.844Y172.317
G1 X267.066Y172.134
G1 X267.249Y171.912
G1 X267.388Y171.657
G1 X267.475Y171.375
G1 X267.505Y171.073
G1 X267.475Y170.771
G1 X267.388Y170.489
G1 X267.249Y170.234
G1 X267.066Y170.012
G1 X266.844Y169.829
G1 X266.589Y169.691
G1 X266.308Y169.603
G1 X266.005Y169.573
; Layer C00 Pass 3 of 3
G1 X265.703Y169.603
G1 X265.422Y169.691
G1 X265.167Y169.829
G1 X264.945Y170.012
G1 X264.762Y170.234
G1 X264.623Y170.489
G1 X264.536Y170.771
G1 X264.505Y171.073
G1 X264.536Y171.375
G1 X264.623Y171.657
G1 X264.762Y171.912
G1 X264.945Y172.134
G1 X265.167Y172.317
G1 X265.422Y172.455
G1 X265.703Y172.543
G1 X266.005Y172.573
G1 X266.308Y172.543
G1 X266.589Y172.455
G1 X266.844Y172.317
G1 X267.066Y172.134
G1 X267.249Y171.912
G1 X267.388Y171.657
G1 X267.475Y171.375
G1 X267.505Y171.073
G1 X267.475Y170.771
G1 X267.388Y170.489
G1 X267.249Y170.234
G1 X267.066Y170.012
G1 X266.844Y169.829
G1 X266.589Y169.691
G1 X266.308Y169.603
G1 X266.005Y169.573
G0 X266.137Y204.947
; Layer C00 Pass 1 of 3
G1 X265.835Y204.977
G1 X265.554Y205.065
G1 X265.299Y205.203
G1 X265.077Y205.386
G1 X264.894Y205.608
G1 X264.755Y205.863
G1 X264.668Y206.145
G1 X264.637Y206.447
G1 X264.668Y206.749
G1 X264.755Y207.031
G1 X264.894Y207.286
G1 X265.077Y207.508
G1 X265.299Y207.691
G1 X265.554Y207.829
G1 X265.835Y207.917
G1 X266.137Y207.947
G1 X266.44Y207.917
G1 X266.721Y207.829
G1 X266.976Y207.691
G1 X267.198Y207.508
G1 X267.381Y207.286
G1 X267.52Y207.031
G1 X267.607Y206.749
G1 X267.637Y206.447
G1 X267.607Y206.145
G1 X267.52Y205.863
G1 X267.381Y205.608
G1 X267.198Y205.386
G1 X266.976Y205.203
G1 X266.721Y205.065
G1 X266.44Y204.977
G1 X266.137Y204.947
; Layer C00 Pass 2 of 3
G1 X265.835Y204.977
G1 X265.554Y205.065
G1 X265.299Y205.203
G1 X265.077Y205.386
G1 X264.894Y205.608
G1 X264.755Y205.863
G1 X264.668Y206.145
G1 X264.637Y206.447
G1 X264.668Y206.749
G1 X264.755Y207.031
G1 X264.894Y207.286
G1 X265.077Y207.508
G1 X265.299Y207.691
G1 X265.554Y207.829
G1 X265.835Y207.917
G1 X266.137Y207.947
G1 X266.44Y207.917
G1 X266.721Y207.829
G1 X266.976Y207.691
G1 X267.198Y207.508
G1 X267.381Y207.286
G1 X267.52Y207.031
G1 X267.607Y206.749
G1 X267.637Y206.447
G1 X267.607Y206.145
G1 X267.52Y205.863
G1 X267.381Y205.608
G1 X267.198Y205.386
G1 X266.976Y205.203
G1 X266.721Y205.065
G1 X266.44Y204.977
G1 X266.137Y204.947
; Layer C00 Pass 3 of 3
G1 X265.835Y204.977
G1 X265.554Y205.065
G1 X265.299Y205.203
G1 X265.077Y205.386
G1 X264.894Y205.608
G1 X264.755Y205.863
G1 X264.668Y206.145
G1 X264.637Y206.447
G1 X264.668Y206.749
G1 X264.755Y207.031
G1 X264.894Y207.286
G1 X265.077Y207.508
G1 X265.299Y207.691
G1 X265.554Y207.829
G1 X265.835Y207.917
G1 X266.137Y207.947
G1 X266.44Y207.917
G1 X266.721Y207.829
G1 X266.976Y207.691
G1 X267.198Y207.508
G1 X267.381Y207.286
G1 X267.52Y207.031
G1 X267.607Y206.749
G1 X267.637Y206.447
G1 X267.607Y206.145
G1 X267.52Y205.863
G1 X267.381Y205.608
G1 X267.198Y205.386
G1 X266.976Y205.203
G1 X266.721Y205.065
G1 X266.44Y204.977
G1 X266.137Y204.947
G0 X258.454Y220.928
; Layer C00 Pass 1 of 3
G1 X258.152Y220.897
G1 X257.849Y220.928
G1 X257.568Y221.015
G1 X257.313Y221.153
G1 X257.091Y221.336
G1 X256.908Y221.558
G1 X256.77Y221.813
G1 X256.682Y222.095
G1 X256.652Y222.397
G1 X256.682Y222.699
G1 X256.77Y222.981
G1 X256.908Y223.236
G1 X257.091Y223.458
G1 X257.313Y223.641
G1 X257.568Y223.779
G1 X257.849Y223.867
G1 X258.152Y223.897
G1 X258.454Y223.867
G1 X258.736Y223.779
G1 X258.99Y223.641
G1 X259.212Y223.458
G1 X259.396Y223.236
G1 X259.534Y222.981
G1 X259.621Y222.699
G1 X259.652Y222.397
G1 X259.621Y222.095
G1 X259.534Y221.813
G1 X259.396Y221.558
G1 X259.212Y221.336
G1 X258.99Y221.153
G1 X258.736Y221.015
G1 X258.454Y220.928
; Layer C00 Pass 2 of 3
G1 X258.152Y220.897
G1 X257.849Y220.928
G1 X257.568Y221.015
G1 X257.313Y221.153
G1 X257.091Y221.336
G1 X256.908Y221.558
G1 X256.77Y221.813
G1 X256.682Y222.095
G1 X256.652Y222.397
G1 X256.682Y222.699
G1 X256.77Y222.981
G1 X256.908Y223.236
G1 X257.091Y223.458
G1 X257.313Y223.641
G1 X257.568Y223.779
G1 X257.849Y223.867
G1 X258.152Y223.897
G1 X258.454Y223.867
G1 X258.736Y223.779
G1 X258.99Y223.641
G1 X259.212Y223.458
G1 X259.396Y223.236
G1 X259.534Y222.981
G1 X259.621Y222.699
G1 X259.652Y222.397
G1 X259.621Y222.095
G1 X259.534Y221.813
G1 X259.396Y221.558
G1 X259.212Y221.336
G1 X258.99Y221.153
G1 X258.736Y221.015
G1 X258.454Y220.928
; Layer C00 Pass 3 of 3
G1 X258.152Y220.897
G1 X257.849Y220.928
G1 X257.568Y221.015
G1 X257.313Y221.153
G1 X257.091Y221.336
G1 X256.908Y221.558
G1 X256.77Y221.813
G1 X256.682Y222.095
G1 X256.652Y222.397
G1 X256.682Y222.699
G1 X256.77Y222.981
G1 X256.908Y223.236
G1 X257.091Y223.458
G1 X257.313Y223.641
G1 X257.568Y223.779
G1 X257.849Y223.867
G1 X258.152Y223.897
G1 X258.454Y223.867
G1 X258.736Y223.779
G1 X258.99Y223.641
G1 X259.212Y223.458
G1 X259.396Y223.236
G1 X259.534Y222.981
G1 X259.621Y222.699
G1 X259.652Y222.397
G1 X259.621Y222.095
G1 X259.534Y221.813
G1 X259.396Y221.558
G1 X259.212Y221.336
G1 X258.99Y221.153
G1 X258.736Y221.015
G1 X258.454Y220.928
G0 X185.052Y222.397
; Layer C00 Pass 1 of 3
G1 X185.021Y222.095
G1 X184.934Y221.813
G1 X184.795Y221.558
G1 X184.612Y221.336
G1 X184.39Y221.153
G1 X184.135Y221.015
G1 X183.854Y220.928
G1 X183.552Y220.897
G1 X183.249Y220.928
G1 X182.968Y221.015
G1 X182.713Y221.153
G1 X182.491Y221.336
G1 X182.308Y221.558
G1 X182.169Y221.813
G1 X182.082Y222.095
G1 X182.052Y222.397
G1 X182.082Y222.699
G1 X182.169Y222.981
G1 X182.308Y223.236
G1 X182.491Y223.458
G1 X182.713Y223.641
G1 X182.968Y223.779
G1 X183.249Y223.867
G1 X183.552Y223.897
G1 X183.854Y223.867
G1 X184.135Y223.779
G1 X184.39Y223.641
G1 X184.612Y223.458
G1 X184.795Y223.236
G1 X184.934Y222.981
G1 X185.021Y222.699
G1 X185.052Y222.397
; Layer C00 Pass 2 of 3
G1 X185.021Y222.095
G1 X184.934Y221.813
G1 X184.795Y221.558
G1 X184.612Y221.336
G1 X184.39Y221.153
G1 X184.135Y221.015
G1 X183.854Y220.928
G1 X183.552Y220.897
G1 X183.249Y220.928
G1 X182.968Y221.015
G1 X182.713Y221.153
G1 X182.491Y221.336
G1 X182.308Y221.558
G1 X182.169Y221.813
G1 X182.082Y222.095
G1 X182.052Y222.397
G1 X182.082Y222.699
G1 X182.169Y222.981
G1 X182.308Y223.236
G1 X182.491Y223.458
G1 X182.713Y223.641
G1 X182.968Y223.779
G1 X183.249Y223.867
G1 X183.552Y223.897
G1 X183.854Y223.867
G1 X184.135Y223.779
G1 X184.39Y223.641
G1 X184.612Y223.458
G1 X184.795Y223.236
G1 X184.934Y222.981
G1 X185.021Y222.699
G1 X185.052Y222.397
; Layer C00 Pass 3 of 3
G1 X185.021Y222.095
G1 X184.934Y221.813
G1 X184.795Y221.558
G1 X184.612Y221.336
G1 X184.39Y221.153
G1 X184.135Y221.015
G1 X183.854Y220.928
G1 X183.552Y220.897
G1 X183.249Y220.928
G1 X182.968Y221.015
G1 X182.713Y221.153
G1 X182.491Y221.336
G1 X182.308Y221.558
G1 X182.169Y221.813
G1 X182.082Y222.095
G1 X182.052Y222.397
G1 X182.082Y222.699
G1 X182.169Y222.981
G1 X182.308Y223.236
G1 X182.491Y223.458
G1 X182.713Y223.641
G1 X182.968Y223.779
G1 X183.249Y223.867
G1 X183.552Y223.897
G1 X183.854Y223.867
G1 X184.135Y223.779
G1 X184.39Y223.641
G1 X184.612Y223.458
G1 X184.795Y223.236
G1 X184.934Y222.981
G1 X185.021Y222.699
G1 X185.052Y222.397
G0 X177.671Y208.144
; Layer C00 Pass 1 of 3
G1 X177.952Y208.057
G1 X178.207Y207.918
G1 X178.429Y207.735
G1 X178.612Y207.513
G1 X178.751Y207.258
G1 X178.838Y206.977
G1 X178.868Y206.674
G1 X178.838Y206.372
G1 X178.751Y206.091
G1 X178.612Y205.836
G1 X178.429Y205.614
G1 X178.207Y205.431
G1 X177.952Y205.292
G1 X177.671Y205.205
G1 X177.368Y205.174
G1 X177.066Y205.205
G1 X176.785Y205.292
G1 X176.53Y205.431
G1 X176.308Y205.614
G1 X176.125Y205.836
G1 X175.986Y206.091
G1 X175.899Y206.372
G1 X175.868Y206.674
G1 X175.899Y206.977
G1 X175.986Y207.258
G1 X176.125Y207.513
G1 X176.308Y207.735
G1 X176.53Y207.918
G1 X176.785Y208.057
G1 X177.066Y208.144
G1 X177.368Y208.174
G1 X177.671Y208.144
; Layer C00 Pass 2 of 3
G1 X177.952Y208.057
G1 X178.207Y207.918
G1 X178.429Y207.735
G1 X178.612Y207.513
G1 X178.751Y207.258
G1 X178.838Y206.977
G1 X178.868Y206.674
G1 X178.838Y206.372
G1 X178.751Y206.091
G1 X178.612Y205.836
G1 X178.429Y205.614
G1 X178.207Y205.431
G1 X177.952Y205.292
G1 X177.671Y205.205
G1 X177.368Y205.174
G1 X177.066Y205.205
G1 X176.785Y205.292
G1 X176.53Y205.431
G1 X176.308Y205.614
G1 X176.125Y205.836
G1 X175.986Y206.091
G1 X175.899Y206.372
G1 X175.868Y206.674
G1 X175.899Y206.977
G1 X175.986Y207.258
G1 X176.125Y207.513
G1 X176.308Y207.735
G1 X176.53Y207.918
G1 X176.785Y208.057
G1 X177.066Y208.144
G1 X177.368Y208.174
G1 X177.671Y208.144
; Layer C00 Pass 3 of 3
G1 X177.952Y208.057
G1 X178.207Y207.918
G1 X178.429Y207.735
G1 X178.612Y207.513
G1 X178.751Y207.258
G1 X178.838Y206.977
G1 X178.868Y206.674
G1 X178.838Y206.372
G1 X178.751Y206.091
G1 X178.612Y205.836
G1 X178.429Y205.614
G1 X178.207Y205.431
G1 X177.952Y205.292
G1 X177.671Y205.205
G1 X177.368Y205.174
G1 X177.066Y205.205
G1 X176.785Y205.292
G1 X176.53Y205.431
G1 X176.308Y205.614
G1 X176.125Y205.836
G1 X175.986Y206.091
G1 X175.899Y206.372
G1 X175.868Y206.674
G1 X175.899Y206.977
G1 X175.986Y207.258
G1 X176.125Y207.513
G1 X176.308Y207.735
G1 X176.53Y207.918
G1 X176.785Y208.057
G1 X177.066Y208.144
G1 X177.368Y208.174
G1 X177.671Y208.144
G0 X187.747Y174.459
; Layer C00 Pass 1 of 3
G1 X188.15Y174.5
G1 X188.553Y174.459
G1 X188.928Y174.343
G1 X189.268Y174.158
G1 X189.564Y173.914
G1 X189.808Y173.618
G1 X189.993Y173.278
G1 X190.109Y172.903
G1 X190.15Y172.5
G1 X190.109Y172.097
G1 X189.993Y171.722
G1 X189.808Y171.382
G1 X189.564Y171.086
G1 X189.268Y170.842
G1 X188.928Y170.657
G1 X188.553Y170.541
G1 X188.15Y170.5
G1 X187.747Y170.541
G1 X187.372Y170.657
G1 X187.032Y170.842
G1 X186.736Y171.086
G1 X186.492Y171.382
G1 X186.307Y171.722
G1 X186.191Y172.097
G1 X186.15Y172.5
G1 X186.191Y172.903
G1 X186.307Y173.278
G1 X186.492Y173.618
G1 X186.736Y173.914
G1 X187.032Y174.158
G1 X187.372Y174.343
G1 X187.747Y174.459
; Layer C00 Pass 2 of 3
G1 X188.15Y174.5
G1 X188.553Y174.459
G1 X188.928Y174.343
G1 X189.268Y174.158
G1 X189.564Y173.914
G1 X189.808Y173.618
G1 X189.993Y173.278
G1 X190.109Y172.903
G1 X190.15Y172.5
G1 X190.109Y172.097
G1 X189.993Y171.722
G1 X189.808Y171.382
G1 X189.564Y171.086
G1 X189.268Y170.842
G1 X188.928Y170.657
G1 X188.553Y170.541
G1 X188.15Y170.5
G1 X187.747Y170.541
G1 X187.372Y170.657
G1 X187.032Y170.842
G1 X186.736Y171.086
G1 X186.492Y171.382
G1 X186.307Y171.722
G1 X186.191Y172.097
G1 X186.15Y172.5
G1 X186.191Y172.903
G1 X186.307Y173.278
G1 X186.492Y173.618
G1 X186.736Y173.914
G1 X187.032Y174.158
G1 X187.372Y174.343
G1 X187.747Y174.459
; Layer C00 Pass 3 of 3
G1 X188.15Y174.5
G1 X188.553Y174.459
G1 X188.928Y174.343
G1 X189.268Y174.158
G1 X189.564Y173.914
G1 X189.808Y173.618
G1 X189.993Y173.278
G1 X190.109Y172.903
G1 X190.15Y172.5
G1 X190.109Y172.097
G1 X189.993Y171.722
G1 X189.808Y171.382
G1 X189.564Y171.086
G1 X189.268Y170.842
G1 X188.928Y170.657
G1 X188.553Y170.541
G1 X188.15Y170.5
G1 X187.747Y170.541
G1 X187.372Y170.657
G1 X187.032Y170.842
G1 X186.736Y171.086
G1 X186.492Y171.382
G1 X186.307Y171.722
G1 X186.191Y172.097
G1 X186.15Y172.5
G1 X186.191Y172.903
G1 X186.307Y173.278
G1 X186.492Y173.618
G1 X186.736Y173.914
G1 X187.032Y174.158
G1 X187.372Y174.343
G1 X187.747Y174.459
G0 X196.007Y173.278
; Layer C00 Pass 1 of 3
G1 X196.192Y173.618
G1 X196.436Y173.914
G1 X196.732Y174.158
G1 X197.072Y174.343
G1 X197.447Y174.459
G1 X197.85Y174.5
G1 X198.253Y174.459
G1 X198.628Y174.343
G1 X198.968Y174.158
G1 X199.264Y173.914
G1 X199.508Y173.618
G1 X199.693Y173.278
G1 X199.809Y172.903
G1 X199.85Y172.5
G1 X199.809Y172.097
G1 X199.693Y171.722
G1 X199.508Y171.382
G1 X199.264Y171.086
G1 X198.968Y170.842
G1 X198.628Y170.657
G1 X198.253Y170.541
G1 X197.85Y170.5
G1 X197.447Y170.541
G1 X197.072Y170.657
G1 X196.732Y170.842
G1 X196.436Y171.086
G1 X196.192Y171.382
G1 X196.007Y171.722
G1 X195.891Y172.097
G1 X195.85Y172.5
G1 X195.891Y172.903
G1 X196.007Y173.278
; Layer C00 Pass 2 of 3
G1 X196.192Y173.618
G1 X196.436Y173.914
G1 X196.732Y174.158
G1 X197.072Y174.343
G1 X197.447Y174.459
G1 X197.85Y174.5
G1 X198.253Y174.459
G1 X198.628Y174.343
G1 X198.968Y174.158
G1 X199.264Y173.914
G1 X199.508Y173.618
G1 X199.693Y173.278
G1 X199.809Y172.903
G1 X199.85Y172.5
G1 X199.809Y172.097
G1 X199.693Y171.722
G1 X199.508Y171.382
G1 X199.264Y171.086
G1 X198.968Y170.842
G1 X198.628Y170.657
G1 X198.253Y170.541
G1 X197.85Y170.5
G1 X197.447Y170.541
G1 X197.072Y170.657
G1 X196.732Y170.842
G1 X196.436Y171.086
G1 X196.192Y171.382
G1 X196.007Y171.722
G1 X195.891Y172.097
G1 X195.85Y172.5
G1 X195.891Y172.903
G1 X196.007Y173.278
; Layer C00 Pass 3 of 3
G1 X196.192Y173.618
G1 X196.436Y173.914
G1 X196.732Y174.158
G1 X197.072Y174.343
G1 X197.447Y174.459
G1 X197.85Y174.5
G1 X198.253Y174.459
G1 X198.628Y174.343
G1 X198.968Y174.158
G1 X199.264Y173.914
G1 X199.508Y173.618
G1 X199.693Y173.278
G1 X199.809Y172.903
G1 X199.85Y172.5
G1 X199.809Y172.097
G1 X199.693Y171.722
G1 X199.508Y171.382
G1 X199.264Y171.086
G1 X198.968Y170.842
G1 X198.628Y170.657
G1 X198.253Y170.541
G1 X197.85Y170.5
G1 X197.447Y170.541
G1 X197.072Y170.657
G1 X196.732Y170.842
G1 X196.436Y171.086
G1 X196.192Y171.382
G1 X196.007Y171.722
G1 X195.891Y172.097
G1 X195.85Y172.5
G1 X195.891Y172.903
G1 X196.007Y173.278
G0 X178.706Y171.602
; Layer C00 Pass 1 of 3
G1 X178.736Y171.3
G1 X178.706Y170.998
G1 X178.618Y170.716
G1 X178.48Y170.461
G1 X178.297Y170.239
G1 X178.075Y170.056
G1 X177.82Y169.918
G1 X177.539Y169.831
G1 X177.236Y169.8
G1 X176.934Y169.831
G1 X176.652Y169.918
G1 X176.398Y170.056
G1 X176.176Y170.239
G1 X175.993Y170.461
G1 X175.854Y170.716
G1 X175.767Y170.998
G1 X175.736Y171.3
G1 X175.767Y171.602
G1 X175.854Y171.884
G1 X175.993Y172.139
G1 X176.176Y172.361
G1 X176.398Y172.544
G1 X176.652Y172.682
G1 X176.934Y172.77
G1 X177.236Y172.8
G1 X177.539Y172.77
G1 X177.82Y172.682
G1 X178.075Y172.544
G1 X178.297Y172.361
G1 X178.48Y172.139
G1 X178.618Y171.884
G1 X178.706Y171.602
; Layer C00 Pass 2 of 3
G1 X178.736Y171.3
G1 X178.706Y170.998
G1 X178.618Y170.716
G1 X178.48Y170.461
G1 X178.297Y170.239
G1 X178.075Y170.056
G1 X177.82Y169.918
G1 X177.539Y169.831
G1 X177.236Y169.8
G1 X176.934Y169.831
G1 X176.652Y169.918
G1 X176.398Y170.056
G1 X176.176Y170.239
G1 X175.993Y170.461
G1 X175.854Y170.716
G1 X175.767Y170.998
G1 X175.736Y171.3
G1 X175.767Y171.602
G1 X175.854Y171.884
G1 X175.993Y172.139
G1 X176.176Y172.361
G1 X176.398Y172.544
G1 X176.652Y172.682
G1 X176.934Y172.77
G1 X177.236Y172.8
G1 X177.539Y172.77
G1 X177.82Y172.682
G1 X178.075Y172.544
G1 X178.297Y172.361
G1 X178.48Y172.139
G1 X178.618Y171.884
G1 X178.706Y171.602
; Layer C00 Pass 3 of 3
G1 X178.736Y171.3
G1 X178.706Y170.998
G1 X178.618Y170.716
G1 X178.48Y170.461
G1 X178.297Y170.239
G1 X178.075Y170.056
G1 X177.82Y169.918
G1 X177.539Y169.831
G1 X177.236Y169.8
G1 X176.934Y169.831
G1 X176.652Y169.918
G1 X176.398Y170.056
G1 X176.176Y170.239
G1 X175.993Y170.461
G1 X175.854Y170.716
G1 X175.767Y170.998
G1 X175.736Y171.3
G1 X175.767Y171.602
G1 X175.854Y171.884
G1 X175.993Y172.139
G1 X176.176Y172.361
G1 X176.398Y172.544
G1 X176.652Y172.682
G1 X176.934Y172.77
G1 X177.236Y172.8
G1 X177.539Y172.77
G1 X177.82Y172.682
G1 X178.075Y172.544
G1 X178.297Y172.361
G1 X178.48Y172.139
G1 X178.618Y171.884
G1 X178.706Y171.602
G0 X183.552Y150.5
; Layer C00 Pass 1 of 3
G1 X183.854Y150.47
G1 X184.135Y150.382
G1 X184.39Y150.244
G1 X184.612Y150.061
G1 X184.795Y149.839
G1 X184.934Y149.584
G1 X185.021Y149.302
G1 X185.052Y149
G1 X185.021Y148.698
G1 X184.934Y148.416
G1 X184.795Y148.161
G1 X184.612Y147.939
G1 X184.39Y147.756
G1 X184.135Y147.618
G1 X183.854Y147.53
G1 X183.552Y147.5
G1 X183.249Y147.53
G1 X182.968Y147.618
G1 X182.713Y147.756
G1 X182.491Y147.939
G1 X182.308Y148.161
G1 X182.169Y148.416
G1 X182.082Y148.698
G1 X182.052Y149
G1 X182.082Y149.302
G1 X182.169Y149.584
G1 X182.308Y149.839
G1 X182.491Y150.061
G1 X182.713Y150.244
G1 X182.968Y150.382
G1 X183.249Y150.47
G1 X183.552Y150.5
; Layer C00 Pass 2 of 3
G1 X183.854Y150.47
G1 X184.135Y150.382
G1 X184.39Y150.244
G1 X184.612Y150.061
G1 X184.795Y149.839
G1 X184.934Y149.584
G1 X185.021Y149.302
G1 X185.052Y149
G1 X185.021Y148.698
G1 X184.934Y148.416
G1 X184.795Y148.161
G1 X184.612Y147.939
G1 X184.39Y147.756
G1 X184.135Y147.618
G1 X183.854Y147.53
G1 X183.552Y147.5
G1 X183.249Y147.53
G1 X182.968Y147.618
G1 X182.713Y147.756
G1 X182.491Y147.939
G1 X182.308Y148.161
G1 X182.169Y148.416
G1 X182.082Y148.698
G1 X182.052Y149
G1 X182.082Y149.302
G1 X182.169Y149.584
G1 X182.308Y149.839
G1 X182.491Y150.061
G1 X182.713Y150.244
G1 X182.968Y150.382
G1 X183.249Y150.47
G1 X183.552Y150.5
; Layer C00 Pass 3 of 3
G1 X183.854Y150.47
G1 X184.135Y150.382
G1 X184.39Y150.244
G1 X184.612Y150.061
G1 X184.795Y149.839
G1 X184.934Y149.584
G1 X185.021Y149.302
G1 X185.052Y149
G1 X185.021Y148.698
G1 X184.934Y148.416
G1 X184.795Y148.161
G1 X184.612Y147.939
G1 X184.39Y147.756
G1 X184.135Y147.618
G1 X183.854Y147.53
G1 X183.552Y147.5
G1 X183.249Y147.53
G1 X182.968Y147.618
G1 X182.713Y147.756
G1 X182.491Y147.939
G1 X182.308Y148.161
G1 X182.169Y148.416
G1 X182.082Y148.698
G1 X182.052Y149
G1 X182.082Y149.302
G1 X182.169Y149.584
G1 X182.308Y149.839
G1 X182.491Y150.061
G1 X182.713Y150.244
G1 X182.968Y150.382
G1 X183.249Y150.47
G1 X183.552Y150.5
G0 X183.552Y150.5
; Layer C00 Pass 1 of 3
G1 X183.854Y150.47
G1 X184.135Y150.382
G1 X184.39Y150.244
G1 X184.612Y150.061
G1 X184.795Y149.839
G1 X184.934Y149.584
G1 X185.021Y149.302
G1 X185.052Y149
G1 X185.021Y148.698
G1 X184.934Y148.416
G1 X184.795Y148.161
G1 X184.612Y147.939
G1 X184.39Y147.756
G1 X184.135Y147.618
G1 X183.854Y147.53
G1 X183.552Y147.5
G1 X183.249Y147.53
G1 X182.968Y147.618
G1 X182.713Y147.756
G1 X182.491Y147.939
G1 X182.308Y148.161
G1 X182.169Y148.416
G1 X182.082Y148.698
G1 X182.052Y149
G1 X182.082Y149.302
G1 X182.169Y149.584
G1 X182.308Y149.839
G1 X182.491Y150.061
G1 X182.713Y150.244
G1 X182.968Y150.382
G1 X183.249Y150.47
G1 X183.552Y150.5
; Layer C00 Pass 2 of 3
G1 X183.854Y150.47
G1 X184.135Y150.382
G1 X184.39Y150.244
G1 X184.612Y150.061
G1 X184.795Y149.839
G1 X184.934Y149.584
G1 X185.021Y149.302
G1 X185.052Y149
G1 X185.021Y148.698
G1 X184.934Y148.416
G1 X184.795Y148.161
G1 X184.612Y147.939
G1 X184.39Y147.756
G1 X184.135Y147.618
G1 X183.854Y147.53
G1 X183.552Y147.5
G1 X183.249Y147.53
G1 X182.968Y147.618
G1 X182.713Y147.756
G1 X182.491Y147.939
G1 X182.308Y148.161
G1 X182.169Y148.416
G1 X182.082Y148.698
G1 X182.052Y149
G1 X182.082Y149.302
G1 X182.169Y149.584
G1 X182.308Y149.839
G1 X182.491Y150.061
G1 X182.713Y150.244
G1 X182.968Y150.382
G1 X183.249Y150.47
G1 X183.552Y150.5
; Layer C00 Pass 3 of 3
G1 X183.854Y150.47
G1 X184.135Y150.382
G1 X184.39Y150.244
G1 X184.612Y150.061
G1 X184.795Y149.839
G1 X184.934Y149.584
G1 X185.021Y149.302
G1 X185.052Y149
G1 X185.021Y148.698
G1 X184.934Y148.416
G1 X184.795Y148.161
G1 X184.612Y147.939
G1 X184.39Y147.756
G1 X184.135Y147.618
G1 X183.854Y147.53
G1 X183.552Y147.5
G1 X183.249Y147.53
G1 X182.968Y147.618
G1 X182.713Y147.756
G1 X182.491Y147.939
G1 X182.308Y148.161
G1 X182.169Y148.416
G1 X182.082Y148.698
G1 X182.052Y149
G1 X182.082Y149.302
G1 X182.169Y149.584
G1 X182.308Y149.839
G1 X182.491Y150.061
G1 X182.713Y150.244
G1 X182.968Y150.382
G1 X183.249Y150.47
G1 X183.552Y150.5
G0 X177.584Y142.382
; Layer C00 Pass 1 of 3
G1 X177.839Y142.244
G1 X178.061Y142.061
G1 X178.244Y141.839
G1 X178.382Y141.584
G1 X178.47Y141.302
G1 X178.5Y141
G1 X178.47Y140.698
G1 X178.382Y140.416
G1 X178.244Y140.161
G1 X178.061Y139.939
G1 X177.839Y139.756
G1 X177.584Y139.618
G1 X177.302Y139.53
G1 X177Y139.5
G1 X176.698Y139.53
G1 X176.416Y139.618
G1 X176.161Y139.756
G1 X175.939Y139.939
G1 X175.756Y140.161
G1 X175.618Y140.416
G1 X175.53Y140.698
G1 X175.5Y141
G1 X175.53Y141.302
G1 X175.618Y141.584
G1 X175.756Y141.839
G1 X175.939Y142.061
G1 X176.161Y142.244
G1 X176.416Y142.382
G1 X176.698Y142.47
G1 X177Y142.5
G1 X177.302Y142.47
G1 X177.584Y142.382
; Layer C00 Pass 2 of 3
G1 X177.839Y142.244
G1 X178.061Y142.061
G1 X178.244Y141.839
G1 X178.382Y141.584
G1 X178.47Y141.302
G1 X178.5Y141
G1 X178.47Y140.698
G1 X178.382Y140.416
G1 X178.244Y140.161
G1 X178.061Y139.939
G1 X177.839Y139.756
G1 X177.584Y139.618
G1 X177.302Y139.53
G1 X177Y139.5
G1 X176.698Y139.53
G1 X176.416Y139.618
G1 X176.161Y139.756
G1 X175.939Y139.939
G1 X175.756Y140.161
G1 X175.618Y140.416
G1 X175.53Y140.698
G1 X175.5Y141
G1 X175.53Y141.302
G1 X175.618Y141.584
G1 X175.756Y141.839
G1 X175.939Y142.061
G1 X176.161Y142.244
G1 X176.416Y142.382
G1 X176.698Y142.47
G1 X177Y142.5
G1 X177.302Y142.47
G1 X177.584Y142.382
; Layer C00 Pass 3 of 3
G1 X177.839Y142.244
G1 X178.061Y142.061
G1 X178.244Y141.839
G1 X178.382Y141.584
G1 X178.47Y141.302
G1 X178.5Y141
G1 X178.47Y140.698
G1 X178.382Y140.416
G1 X178.244Y140.161
G1 X178.061Y139.939
G1 X177.839Y139.756
G1 X177.584Y139.618
G1 X177.302Y139.53
G1 X177Y139.5
G1 X176.698Y139.53
G1 X176.416Y139.618
G1 X176.161Y139.756
G1 X175.939Y139.939
G1 X175.756Y140.161
G1 X175.618Y140.416
G1 X175.53Y140.698
G1 X175.5Y141
G1 X175.53Y141.302
G1 X175.618Y141.584
G1 X175.756Y141.839
G1 X175.939Y142.061
G1 X176.161Y142.244
G1 X176.416Y142.382
G1 X176.698Y142.47
G1 X177Y142.5
G1 X177.302Y142.47
G1 X177.584Y142.382
G0 X166.816Y131.224
; Layer C00 Pass 1 of 3
G1 Y241.224
G1 X276.816
G1 Y131.224
G1 X166.816
; Layer C00 Pass 2 of 3
G1 Y241.224
G1 X276.816
G1 Y131.224
G1 X166.816
; Layer C00 Pass 3 of 3
G1 Y241.224
G1 X276.816
G1 Y131.224
G1 X166.816
G0 X124Y271
; Layer C00 Pass 1 of 3
G1 Y272
G1 Y271
; Layer C00 Pass 2 of 3
G1 Y272
G1 Y271
; Layer C00 Pass 3 of 3
G1 Y272
G1 Y271
M9
G1 S0
M5
G90
; return to user-defined finish pos
G0 X0 Y0
M2
